;FLAVOR:Marlin
;TIME:3609
;Filament used: 2.71649m
;Layer height: 0.2
;MINX:72.98
;MINY:31.98
;MINZ:0.2
;MAXX:137.02
;MAXY:178.02
;MAXZ:12
;Generated with Cura_SteamEngine 4.11.0
M140 S60
M105
M190 S60
M104 S200
M105
M109 S200
M82 ;absolute extrusion mode
G21 ;metric values
G90 ;absolute positioning
M82 ;set extruder to absolute mode
M107 ;start with the fan off
G28 X0 Y0 ;move X/Y to min endstops
G28 Z0 ;move Z to min endstops
G1 Z15.0 F100 ;move the platform down 15mm
G92 E0 ;zero the extruded length
G1 F200 E3 ;extrude 3mm of feed stock
G92 E0 ;zero the extruded length again
G1 F100
G0 Y20 F100
M117 Printing...
G5
G92 E0
G92 E0
G1 F2400 E-3
;LAYER_COUNT:35
;LAYER:0
M107
M204 S3000
M205 X10 Y10
G1 F600 Z0.275
G0 F500 X74.162 Y36.932 Z0.275
M204 S1800
M205 X8 Y8
;TYPE:SKIRT
G1 F600 Z0.2
G1 F2400 E0
G1 X74.275 Y36.732 E0.01498
G1 X74.674 Y36.101 E0.06364
G1 X74.774 Y35.959 E0.07497
G1 X75.493 Y35.085 E0.14874
G1 X75.793 Y34.772 E0.17701
G1 X76.358 Y34.241 E0.22755
G1 X76.841 Y33.86 E0.26766
G1 X77.555 Y33.38 E0.32374
G1 X77.739 Y33.271 E0.33768
G1 X78.416 Y32.915 E0.38755
G1 X78.615 Y32.823 E0.40184
G1 X79.544 Y32.466 E0.46672
G1 X79.844 Y32.373 E0.48719
G1 X80.896 Y32.128 E0.55761
G1 X81.605 Y32.033 E0.60424
G1 X82.321 Y31.992 E0.65099
G1 X82.99 Y31.981 E0.69461
G1 X126.798 Y31.98 E3.55045
G1 X127.667 Y31.992 E3.6071
G1 X128.297 Y32.027 E3.64824
G1 X128.55 Y32.052 E3.66481
G1 X129.588 Y32.229 E3.73345
G1 X129.917 Y32.309 E3.75553
G1 X130.996 Y32.659 E3.82948
G1 X131.225 Y32.753 E3.84561
G1 X132.053 Y33.154 E3.90559
G1 X132.247 Y33.263 E3.92009
G1 X132.875 Y33.658 E3.96846
G1 X133.025 Y33.763 E3.98039
G1 X133.916 Y34.494 E4.05552
G1 X134.227 Y34.792 E4.0836
G1 X135 Y35.657 E4.15923
G1 X135.123 Y35.818 E4.17244
G1 X135.586 Y36.498 E4.22606
G1 X135.694 Y36.677 E4.23969
G1 X136.079 Y37.402 E4.29321
G1 X136.173 Y37.605 E4.30779
G1 X136.533 Y38.542 E4.37323
G1 X136.628 Y38.849 E4.39418
G1 X136.87 Y39.887 E4.46366
G1 X136.904 Y40.1 E4.47772
G1 X136.968 Y40.616 E4.51161
G1 X137.011 Y41.421 E4.56417
G1 X137.019 Y41.933 E4.59755
G1 X137.019 Y67.865 E6.28805
G1 X137.008 Y68.663 E6.34008
G1 X136.977 Y69.251 E6.37846
G1 X136.955 Y69.489 E6.39404
G1 X136.776 Y70.566 E6.46522
G1 X136.693 Y70.909 E6.48822
G1 X136.339 Y72 E6.56299
G1 X136.244 Y72.231 E6.57928
G1 X135.841 Y73.063 E6.63954
G1 X135.73 Y73.26 E6.65428
G1 X135.341 Y73.878 E6.70189
G1 X135.241 Y74.021 E6.71326
G1 X134.507 Y74.915 E6.78867
G1 X134.207 Y75.228 E6.81693
G1 X133.343 Y76 E6.89247
G1 X133.182 Y76.123 E6.90567
G1 X132.481 Y76.598 E6.96087
G1 X132.294 Y76.71 E6.97508
G1 X131.539 Y77.106 E7.03066
G1 X131.343 Y77.195 E7.04469
G1 X130.497 Y77.519 E7.10375
G1 X130.196 Y77.614 E7.12433
G1 X129.12 Y77.869 E7.19641
G1 X128.901 Y77.904 E7.21087
G1 X128.395 Y77.967 E7.24411
G1 X127.681 Y78.008 E7.29074
G1 X127.009 Y78.019 E7.33455
G1 X83.202 Y78.02 E10.19032
G1 X82.333 Y78.008 E10.24698
G1 X81.703 Y77.973 E10.28811
G1 X81.45 Y77.948 E10.30468
G1 X80.412 Y77.771 E10.37333
G1 X80.083 Y77.691 E10.3954
G1 X78.995 Y77.337 E10.46999
G1 X78.762 Y77.241 E10.48641
G1 X77.932 Y76.838 E10.54656
G1 X77.737 Y76.728 E10.56116
G1 X77.105 Y76.329 E10.60988
G1 X76.96 Y76.227 E10.62144
G1 X76.083 Y75.505 E10.69549
G1 X75.769 Y75.204 E10.72385
G1 X75.238 Y74.639 E10.77439
G1 X74.806 Y74.078 E10.82055
G1 X74.612 Y73.8 E10.84265
G1 X74.073 Y72.9 E10.91104
G1 X73.972 Y72.701 E10.92559
G1 X73.642 Y71.954 E10.97882
G1 X73.565 Y71.75 E10.99304
G1 X73.284 Y70.828 E11.05587
G1 X73.22 Y70.558 E11.07396
G1 X73.071 Y69.72 E11.12945
G1 X73.05 Y69.545 E11.14094
G1 X73.002 Y68.94 E11.1805
G1 X72.981 Y68.009 E11.24121
G1 X72.98 Y42.184 E12.92474
G1 X72.992 Y41.331 E12.98035
G1 X73.029 Y40.689 E13.02227
G1 X73.056 Y40.421 E13.03983
G1 X73.238 Y39.367 E13.10956
G1 X73.316 Y39.052 E13.13071
G1 X73.649 Y38.03 E13.20078
G1 X73.742 Y37.801 E13.21689
G1 X74.162 Y36.932 E13.27981
M204 S3000
M205 X10 Y10
G0 F500 X74.649 Y37.207
M204 S1800
M205 X8 Y8
G1 F2400 X74.762 Y37.007 E13.29479
G1 X75.131 Y36.424 E13.33977
G1 X75.231 Y36.282 E13.35109
G1 X75.897 Y35.473 E13.4194
G1 X76.197 Y35.16 E13.44766
G1 X77.014 Y34.432 E13.519
G1 X77.18 Y34.306 E13.53259
G1 X77.841 Y33.862 E13.5845
G1 X78.025 Y33.753 E13.59844
G1 X78.651 Y33.423 E13.64457
G1 X78.85 Y33.331 E13.65886
G1 X79.71 Y33.001 E13.71891
G1 X80.01 Y32.908 E13.73939
G1 X80.984 Y32.681 E13.80458
G1 X81.656 Y32.591 E13.84878
G1 X82.342 Y32.551 E13.89358
G1 X83.085 Y32.54 E13.94202
G1 X126.798 Y32.54 E16.79166
G1 X127.659 Y32.552 E16.8478
G1 X128.242 Y32.585 E16.88586
G1 X128.495 Y32.61 E16.90244
G1 X129.455 Y32.773 E16.96591
G1 X129.784 Y32.853 E16.98799
G1 X130.783 Y33.177 E17.05645
G1 X131.012 Y33.271 E17.07259
G1 X131.778 Y33.642 E17.12807
G1 X131.972 Y33.751 E17.14258
G1 X132.554 Y34.117 E17.1874
G1 X132.704 Y34.222 E17.19933
G1 X133.528 Y34.899 E17.26886
G1 X133.839 Y35.197 E17.29693
G1 X134.555 Y35.997 E17.36692
G1 X134.678 Y36.158 E17.38013
G1 X135.106 Y36.787 E17.42973
G1 X135.214 Y36.966 E17.44336
G1 X135.571 Y37.637 E17.49291
G1 X135.665 Y37.84 E17.50749
G1 X135.998 Y38.708 E17.56809
G1 X136.093 Y39.015 E17.58904
G1 X136.317 Y39.975 E17.65331
G1 X136.41 Y40.666 E17.69876
G1 X136.451 Y41.441 E17.74935
G1 X136.459 Y41.933 E17.78143
G1 X136.459 Y67.857 E19.47141
G1 X136.448 Y68.655 E19.52344
G1 X136.419 Y69.2 E19.55902
G1 X136.397 Y69.438 E19.5746
G1 X136.232 Y70.434 E19.64041
G1 X136.149 Y70.777 E19.66342
G1 X135.821 Y71.787 E19.73265
G1 X135.726 Y72.018 E19.74893
G1 X135.353 Y72.788 E19.8047
G1 X135.242 Y72.985 E19.81944
G1 X134.882 Y73.557 E19.8635
G1 X134.782 Y73.7 E19.87488
G1 X134.103 Y74.527 E19.94463
G1 X133.803 Y74.84 E19.9729
G1 X133.003 Y75.555 E20.04284
G1 X132.842 Y75.678 E20.05605
G1 X132.193 Y76.118 E20.10717
G1 X132.006 Y76.23 E20.12138
G1 X131.308 Y76.596 E20.17275
G1 X131.112 Y76.685 E20.18679
G1 X130.329 Y76.985 E20.24145
G1 X130.028 Y77.08 E20.26202
G1 X129.031 Y77.316 E20.32882
G1 X128.344 Y77.409 E20.37401
G1 X127.66 Y77.449 E20.41868
G1 X126.914 Y77.46 E20.46731
G1 X83.101 Y77.459 E23.32348
G1 X82.341 Y77.448 E23.37303
G1 X81.758 Y77.415 E23.41109
G1 X81.505 Y77.39 E23.42767
G1 X80.545 Y77.227 E23.49114
G1 X80.216 Y77.147 E23.51322
G1 X79.209 Y76.819 E23.58226
G1 X78.976 Y76.723 E23.59868
G1 X78.207 Y76.35 E23.6544
G1 X78.012 Y76.24 E23.669
G1 X77.428 Y75.871 E23.71403
G1 X77.283 Y75.769 E23.72559
G1 X76.471 Y75.1 E23.79417
G1 X76.157 Y74.799 E23.82253
G1 X75.647 Y74.255 E23.87114
G1 X75.265 Y73.758 E23.912
G1 X75.071 Y73.48 E23.9341
G1 X74.573 Y72.647 E23.99737
G1 X74.472 Y72.448 E24.01192
G1 X74.166 Y71.756 E24.06124
G1 X74.089 Y71.552 E24.07546
G1 X73.829 Y70.699 E24.13359
G1 X73.765 Y70.429 E24.15168
G1 X73.627 Y69.653 E24.20306
G1 X73.606 Y69.478 E24.21455
G1 X73.561 Y68.919 E24.25111
G1 X73.541 Y68.002 E24.3109
G1 X73.54 Y42.184 E25.99397
G1 X73.552 Y41.34 E26.049
G1 X73.586 Y40.745 E26.08785
G1 X73.613 Y40.477 E26.10541
G1 X73.782 Y39.502 E26.16992
G1 X73.86 Y39.187 E26.19107
G1 X74.167 Y38.241 E26.25591
G1 X74.26 Y38.012 E26.27202
G1 X74.649 Y37.207 E26.33031
M204 S3000
M205 X10 Y10
G0 F500 X75.137 Y37.483
M204 S1800
M205 X8 Y8
G1 F2400 X75.25 Y37.283 E26.34528
G1 X75.589 Y36.746 E26.38668
G1 X75.689 Y36.604 E26.398
G1 X76.302 Y35.86 E26.46085
G1 X76.602 Y35.547 E26.48911
G1 X77.353 Y34.878 E26.55467
G1 X77.519 Y34.752 E26.56826
G1 X78.126 Y34.344 E26.61594
G1 X78.31 Y34.235 E26.62988
G1 X78.886 Y33.932 E26.67231
G1 X79.085 Y33.84 E26.6866
G1 X79.876 Y33.536 E26.74184
G1 X80.176 Y33.443 E26.76232
G1 X81.071 Y33.235 E26.82222
G1 X81.707 Y33.148 E26.86406
G1 X82.364 Y33.111 E26.90696
G1 X83.004 Y33.101 E26.94869
G1 X126.798 Y33.1 E29.80361
G1 X127.651 Y33.112 E29.85923
G1 X128.187 Y33.142 E29.89422
G1 X128.44 Y33.167 E29.9108
G1 X129.323 Y33.317 E29.96918
G1 X129.652 Y33.397 E29.99126
G1 X130.57 Y33.695 E30.05417
G1 X130.799 Y33.789 E30.07031
G1 X131.504 Y34.13 E30.12136
G1 X131.698 Y34.239 E30.13587
G1 X132.233 Y34.576 E30.17709
G1 X132.383 Y34.681 E30.18902
G1 X133.141 Y35.303 E30.25295
G1 X133.452 Y35.601 E30.28102
G1 X134.11 Y36.337 E30.34538
G1 X134.233 Y36.498 E30.35859
G1 X134.627 Y37.077 E30.40425
G1 X134.735 Y37.256 E30.41788
G1 X135.063 Y37.873 E30.46343
G1 X135.157 Y38.076 E30.47801
G1 X135.463 Y38.873 E30.53367
G1 X135.558 Y39.18 E30.55461
G1 X135.764 Y40.063 E30.61372
G1 X135.853 Y40.716 E30.65669
G1 X135.892 Y41.462 E30.70538
G1 X135.899 Y41.933 E30.73609
G1 X135.899 Y67.849 E32.42555
G1 X135.888 Y68.647 E32.47758
G1 X135.862 Y69.148 E32.51028
G1 X135.84 Y69.386 E32.52586
G1 X135.687 Y70.302 E32.5864
G1 X135.604 Y70.645 E32.60941
G1 X135.303 Y71.574 E32.67307
G1 X135.208 Y71.805 E32.68935
G1 X134.865 Y72.513 E32.74064
G1 X134.754 Y72.71 E32.75538
G1 X134.423 Y73.236 E32.79589
G1 X134.323 Y73.379 E32.80727
G1 X133.698 Y74.14 E32.87147
G1 X133.398 Y74.453 E32.89973
G1 X132.663 Y75.11 E32.964
G1 X132.502 Y75.233 E32.9772
G1 X131.905 Y75.638 E33.02423
G1 X131.718 Y75.75 E33.03844
G1 X131.076 Y76.086 E33.08568
G1 X130.88 Y76.175 E33.09971
G1 X130.16 Y76.451 E33.14998
G1 X129.859 Y76.546 E33.17056
G1 X128.943 Y76.763 E33.23192
G1 X128.293 Y76.852 E33.27469
G1 X127.638 Y76.889 E33.31746
G1 X126.995 Y76.899 E33.35938
G1 X83.202 Y76.9 E36.21424
G1 X82.349 Y76.888 E36.26985
G1 X81.813 Y76.858 E36.30485
G1 X81.56 Y76.833 E36.32142
G1 X80.677 Y76.683 E36.37981
G1 X80.348 Y76.603 E36.40188
G1 X79.422 Y76.301 E36.46538
G1 X79.189 Y76.205 E36.48181
G1 X78.483 Y75.862 E36.53297
G1 X78.288 Y75.752 E36.54757
G1 X77.75 Y75.413 E36.58902
G1 X77.605 Y75.311 E36.60058
G1 X76.858 Y74.696 E36.66366
G1 X76.544 Y74.395 E36.69201
G1 X76.056 Y73.872 E36.73864
G1 X75.725 Y73.438 E36.77423
G1 X75.531 Y73.16 E36.79632
G1 X75.072 Y72.394 E36.85454
G1 X74.971 Y72.195 E36.86909
G1 X74.69 Y71.558 E36.91447
G1 X74.613 Y71.354 E36.92869
G1 X74.374 Y70.57 E36.98212
G1 X74.31 Y70.3 E37.00021
G1 X74.183 Y69.587 E37.04742
G1 X74.162 Y69.412 E37.05891
G1 X74.121 Y68.897 E37.09259
G1 X74.101 Y67.994 E37.15147
G1 X74.1 Y42.184 E38.83402
G1 X74.112 Y41.348 E38.88852
G1 X74.143 Y40.801 E38.92424
G1 X74.17 Y40.533 E38.9418
G1 X74.326 Y39.637 E39.00109
G1 X74.404 Y39.322 E39.02224
G1 X74.686 Y38.452 E39.08186
G1 X74.779 Y38.223 E39.09798
G1 X75.137 Y37.483 E39.15157
M204 S3000
M205 X10 Y10
G0 F500 X75.624 Y37.758
M204 S1800
M205 X8 Y8
G1 F2400 X75.737 Y37.558 E39.16654
G1 X76.047 Y37.068 E39.20434
G1 X76.147 Y36.926 E39.21566
G1 X76.706 Y36.248 E39.27295
G1 X77.006 Y35.935 E39.30121
G1 X77.691 Y35.324 E39.36105
G1 X77.857 Y35.198 E39.37463
G1 X78.412 Y34.825 E39.41823
G1 X78.596 Y34.716 E39.43217
G1 X79.121 Y34.44 E39.47083
G1 X79.32 Y34.348 E39.48513
G1 X80.042 Y34.071 E39.53554
G1 X80.342 Y33.978 E39.55601
G1 X81.159 Y33.788 E39.61069
G1 X81.757 Y33.706 E39.65004
G1 X82.386 Y33.67 E39.69111
G1 X83.011 Y33.66 E39.73186
G1 X126.798 Y33.66 E42.58633
G1 X127.643 Y33.672 E42.64142
G1 X128.385 Y33.724 E42.68991
G1 X129.191 Y33.861 E42.74321
G1 X129.52 Y33.941 E42.76528
G1 X130.358 Y34.213 E42.82272
G1 X130.587 Y34.307 E42.83885
G1 X131.23 Y34.619 E42.88544
G1 X131.424 Y34.728 E42.89995
G1 X131.912 Y35.035 E42.93753
G1 X132.062 Y35.14 E42.94947
G1 X132.753 Y35.707 E43.00774
G1 X133.064 Y36.005 E43.03582
G1 X133.665 Y36.677 E43.09459
G1 X133.788 Y36.838 E43.1078
G1 X134.147 Y37.366 E43.14942
G1 X134.255 Y37.545 E43.16305
G1 X134.554 Y38.108 E43.20461
G1 X134.648 Y38.311 E43.21919
G1 X134.928 Y39.039 E43.27004
G1 X135.023 Y39.346 E43.29099
G1 X135.211 Y40.151 E43.34488
G1 X135.295 Y40.766 E43.38534
G1 X135.332 Y41.482 E43.43208
G1 X135.339 Y41.933 E43.46148
G1 X135.339 Y67.841 E45.15042
G1 X135.328 Y68.639 E45.20245
G1 X135.282 Y69.335 E45.24792
G1 X135.143 Y70.171 E45.30317
G1 X135.06 Y70.514 E45.32617
G1 X134.785 Y71.361 E45.38423
G1 X134.69 Y71.592 E45.40051
G1 X134.377 Y72.238 E45.4473
G1 X134.266 Y72.435 E45.46204
G1 X133.964 Y72.915 E45.49901
G1 X133.864 Y73.058 E45.51039
G1 X133.294 Y73.752 E45.56893
G1 X132.994 Y74.065 E45.5972
G1 X132.323 Y74.665 E45.65588
G1 X132.162 Y74.788 E45.66909
G1 X131.618 Y75.157 E45.71194
G1 X131.431 Y75.269 E45.72615
G1 X130.845 Y75.576 E45.76927
G1 X130.649 Y75.665 E45.78331
G1 X129.992 Y75.917 E45.82918
G1 X129.691 Y76.012 E45.84975
G1 X128.855 Y76.21 E45.90576
G1 X128.243 Y76.294 E45.94603
G1 X127.616 Y76.33 E45.98697
G1 X126.988 Y76.34 E46.02792
G1 X83.117 Y76.339 E48.88786
G1 X82.357 Y76.328 E48.93741
G1 X81.615 Y76.276 E48.9859
G1 X80.809 Y76.139 E49.0392
G1 X80.48 Y76.059 E49.06127
G1 X79.635 Y75.784 E49.1192
G1 X79.402 Y75.688 E49.13563
G1 X78.758 Y75.375 E49.18231
G1 X78.563 Y75.265 E49.1969
G1 X78.072 Y74.955 E49.23475
G1 X77.927 Y74.853 E49.24631
G1 X77.246 Y74.292 E49.30383
G1 X76.932 Y73.991 E49.33218
G1 X76.467 Y73.49 E49.37674
G1 X75.99 Y72.839 E49.42936
G1 X75.571 Y72.14 E49.48248
G1 X75.47 Y71.941 E49.49703
G1 X75.214 Y71.36 E49.53842
G1 X75.137 Y71.156 E49.55264
G1 X74.918 Y70.441 E49.60138
G1 X74.854 Y70.171 E49.61947
G1 X74.739 Y69.52 E49.66257
G1 X74.68 Y68.875 E49.70479
G1 X74.66 Y67.987 E49.76269
G1 X74.661 Y42.097 E51.45046
G1 X74.672 Y41.356 E51.49877
G1 X74.727 Y40.59 E51.54883
G1 X74.869 Y39.771 E51.60302
G1 X74.947 Y39.456 E51.62418
G1 X75.205 Y38.663 E51.67854
G1 X75.298 Y38.434 E51.69465
G1 X75.624 Y37.758 E51.74358
M204 S3000
M205 X10 Y10
G0 F500 X76.112 Y38.034
M204 S1800
M205 X8 Y8
G1 F2400 X76.225 Y37.834 E51.75855
G1 X76.505 Y37.391 E51.79272
G1 X76.605 Y37.249 E51.80404
G1 X77.11 Y36.635 E51.85586
G1 X77.41 Y36.322 E51.88413
G1 X78.03 Y35.77 E51.93824
G1 X78.196 Y35.644 E51.95183
G1 X78.697 Y35.307 E51.99119
G1 X78.881 Y35.198 E52.00513
G1 X79.356 Y34.948 E52.04012
G1 X79.555 Y34.856 E52.05442
G1 X80.208 Y34.606 E52.1
G1 X80.508 Y34.513 E52.12047
G1 X81.246 Y34.341 E52.16987
G1 X81.808 Y34.264 E52.20685
G1 X82.407 Y34.23 E52.24596
G1 X83.018 Y34.22 E52.2858
G1 X126.798 Y34.22 E55.13981
G1 X127.634 Y34.232 E55.19432
G1 X128.33 Y34.282 E55.23981
G1 X129.059 Y34.405 E55.288
G1 X129.388 Y34.485 E55.31007
G1 X130.145 Y34.731 E55.36196
G1 X130.374 Y34.825 E55.3781
G1 X130.955 Y35.107 E55.4202
G1 X131.149 Y35.216 E55.43471
G1 X131.591 Y35.493 E55.46871
G1 X131.741 Y35.598 E55.48065
G1 X132.366 Y36.112 E55.5334
G1 X132.677 Y36.41 E55.56148
G1 X133.22 Y37.017 E55.61457
G1 X133.343 Y37.178 E55.62778
G1 X133.668 Y37.655 E55.66541
G1 X133.776 Y37.834 E55.67903
G1 X134.046 Y38.343 E55.7166
G1 X134.14 Y38.546 E55.73118
G1 X134.393 Y39.204 E55.77714
G1 X134.488 Y39.511 E55.79809
G1 X134.658 Y40.24 E55.84688
G1 X134.737 Y40.815 E55.88472
G1 X134.772 Y41.503 E55.92963
G1 X134.779 Y41.933 E55.95766
G1 X134.779 Y67.834 E57.64615
G1 X134.768 Y68.632 E57.69817
G1 X134.725 Y69.283 E57.7407
G1 X134.599 Y70.039 E57.79067
G1 X134.516 Y70.382 E57.81367
G1 X134.267 Y71.148 E57.86618
G1 X134.172 Y71.379 E57.88246
G1 X133.889 Y71.963 E57.92477
G1 X133.778 Y72.16 E57.93951
G1 X133.505 Y72.594 E57.97293
G1 X133.405 Y72.737 E57.98431
G1 X132.89 Y73.365 E58.03725
G1 X132.59 Y73.678 E58.06552
G1 X131.983 Y74.22 E58.11857
G1 X131.822 Y74.343 E58.13177
G1 X131.33 Y74.677 E58.17054
G1 X131.143 Y74.789 E58.18475
G1 X130.613 Y75.067 E58.22377
G1 X130.417 Y75.156 E58.2378
G1 X129.823 Y75.383 E58.27925
G1 X129.522 Y75.478 E58.29983
G1 X128.766 Y75.657 E58.35047
G1 X128.192 Y75.736 E58.38825
G1 X127.594 Y75.77 E58.42729
G1 X126.981 Y75.78 E58.46726
G1 X83.126 Y75.779 E61.32616
G1 X82.366 Y75.768 E61.37571
G1 X81.67 Y75.718 E61.4212
G1 X80.941 Y75.595 E61.46939
G1 X80.612 Y75.515 E61.49147
G1 X79.849 Y75.266 E61.54379
G1 X79.616 Y75.17 E61.56022
G1 X79.033 Y74.887 E61.60246
G1 X78.838 Y74.777 E61.61706
G1 X78.394 Y74.497 E61.65128
G1 X78.249 Y74.395 E61.66283
G1 X77.633 Y73.888 E61.71484
G1 X77.319 Y73.587 E61.7432
G1 X76.879 Y73.109 E61.78555
G1 X76.449 Y72.519 E61.83314
G1 X76.071 Y71.887 E61.88115
G1 X75.97 Y71.688 E61.8957
G1 X75.738 Y71.163 E61.93312
G1 X75.661 Y70.959 E61.94733
G1 X75.463 Y70.312 E61.99144
G1 X75.399 Y70.042 E62.00953
G1 X75.295 Y69.453 E62.04852
G1 X75.24 Y68.853 E62.0878
G1 X75.22 Y67.98 E62.14472
G1 X75.221 Y42.106 E63.83145
G1 X75.232 Y41.365 E63.87976
G1 X75.285 Y40.646 E63.92676
G1 X75.413 Y39.906 E63.97571
G1 X75.491 Y39.591 E63.99687
G1 X75.724 Y38.873 E64.04608
