;FLAVOR:Marlin
;TIME:3724
;Filament used: 2.72079m
;Layer height: 0.2
;MINX:72.98
;MINY:34.612
;MINZ:0.2
;MAXX:137.02
;MAXY:169.342
;MAXZ:7
;Generated with Cura_SteamEngine 4.11.0
M140 S60
M105
M190 S60
M104 S200
M105
M109 S200
M82 ;absolute extrusion mode
G21 ;metric values
G90 ;absolute positioning
M82 ;set extruder to absolute mode
M107 ;start with the fan off
G28 X0 Y0 ;move X/Y to min endstops
G28 Z0 ;move Z to min endstops
G1 Z15.0 F100 ;move the platform down 15mm
G92 E0 ;zero the extruded length
G1 F200 E3 ;extrude 3mm of feed stock
G92 E0 ;zero the extruded length again
G1 F100
G0 Y20 F100
M117 Printing...
G5
G92 E0
G92 E0
G1 F2400 E-3
;LAYER_COUNT:35
;LAYER:0
M107
M204 S3000
M205 X10 Y10
G1 F600 Z0.275
G0 F500 X74.076 Y39.723 Z0.275
M204 S1800
M205 X8 Y8
;TYPE:SKIRT
G1 F600 Z0.2
G1 F2400 E0
G1 X74.53 Y38.962 E0.05777
G1 X74.971 Y38.324 E0.10833
G1 X75.495 Y37.716 E0.16065
G1 X75.792 Y37.406 E0.18864
G1 X76.657 Y36.632 E0.26431
G1 X76.818 Y36.509 E0.27751
G1 X77.549 Y36.016 E0.33499
G1 X77.738 Y35.904 E0.34931
G1 X78.416 Y35.547 E0.39927
G1 X78.615 Y35.455 E0.41356
G1 X79.544 Y35.098 E0.47844
G1 X79.844 Y35.005 E0.49891
G1 X80.896 Y34.76 E0.56933
G1 X81.605 Y34.665 E0.61596
G1 X82.321 Y34.624 E0.66271
G1 X82.99 Y34.613 E0.70633
G1 X126.798 Y34.612 E3.56217
G1 X127.667 Y34.624 E3.61882
G1 X128.297 Y34.659 E3.65996
G1 X128.55 Y34.684 E3.67653
G1 X129.588 Y34.861 E3.74517
G1 X129.917 Y34.941 E3.76725
G1 X130.996 Y35.291 E3.84119
G1 X131.225 Y35.385 E3.85733
G1 X132.053 Y35.786 E3.91731
G1 X132.247 Y35.895 E3.93181
G1 X132.875 Y36.29 E3.98018
G1 X133.025 Y36.395 E3.99211
G1 X133.916 Y37.126 E4.06724
G1 X134.227 Y37.424 E4.09532
G1 X135 Y38.289 E4.17095
G1 X135.123 Y38.45 E4.18415
G1 X135.572 Y39.107 E4.23603
G1 X135.676 Y39.278 E4.24908
G1 X136.054 Y39.981 E4.30111
G1 X136.144 Y40.172 E4.31488
G1 X136.451 Y40.928 E4.36807
G1 X136.523 Y41.137 E4.38248
G1 X136.746 Y41.918 E4.43543
G1 X136.794 Y42.129 E4.44953
G1 X136.923 Y42.864 E4.49818
G1 X136.945 Y43.04 E4.50974
G1 X136.998 Y43.697 E4.55271
G1 X137.015 Y44.24 E4.58813
G1 X137.019 Y44.587 E4.61075
G1 X137.019 Y70.501 E6.30008
G1 X137.008 Y71.294 E6.35178
G1 X136.973 Y71.929 E6.39324
G1 X136.948 Y72.182 E6.40981
G1 X136.838 Y72.918 E6.45832
G1 X136.803 Y73.093 E6.46996
G1 X136.656 Y73.695 E6.51036
G1 X136.53 Y74.133 E6.54007
G1 X135.835 Y76.427 E6.69632
G1 X135.146 Y78.957 E6.86726
G1 X134.541 Y81.46 E7.03513
G1 X133.989 Y84.062 E7.20853
G1 X133.525 Y86.594 E7.37634
G1 X133.123 Y89.211 E7.54894
G1 X132.797 Y91.814 E7.71996
G1 X132.55 Y94.381 E7.88807
G1 X132.371 Y97.021 E8.06057
G1 X132.269 Y99.604 E8.22908
G1 X132.239 Y102.253 E8.40178
G1 X132.284 Y104.869 E8.57235
G1 X132.401 Y107.446 E8.74051
G1 X132.596 Y110.085 E8.91302
G1 X132.862 Y112.684 E9.08333
G1 X133.2 Y115.263 E9.25289
G1 X133.614 Y117.854 E9.42394
G1 X134.101 Y120.426 E9.59459
G1 X134.651 Y122.948 E9.76286
G1 X135.287 Y125.509 E9.93489
G1 X136.251 Y128.911 E10.16539
G1 X136.609 Y130.091 E10.24578
G1 X136.751 Y130.628 E10.28199
G1 X136.799 Y130.842 E10.29629
G1 X136.924 Y131.56 E10.3438
G1 X136.947 Y131.745 E10.35595
G1 X136.998 Y132.383 E10.39768
G1 X137.019 Y133.313 E10.45832
G1 X137.02 Y159.083 E12.13826
G1 X137.008 Y159.991 E12.19746
G1 X136.979 Y160.562 E12.23473
G1 X136.96 Y160.773 E12.24854
G1 X136.846 Y161.561 E12.30044
G1 X136.801 Y161.788 E12.31553
G1 X136.525 Y162.803 E12.3841
G1 X136.42 Y163.104 E12.40488
G1 X136.128 Y163.822 E12.45541
G1 X135.82 Y164.419 E12.4992
G1 X135.425 Y165.075 E12.54912
G1 X135.355 Y165.179 E12.55729
G1 X134.96 Y165.714 E12.60065
G1 X134.519 Y166.235 E12.64515
G1 X134.486 Y166.271 E12.64833
G1 X133.818 Y166.916 E12.70886
G1 X133.488 Y167.197 E12.73712
G1 X132.873 Y167.668 E12.78762
G1 X132.304 Y168.026 E12.83144
G1 X131.539 Y168.428 E12.88778
G1 X131.343 Y168.517 E12.90181
G1 X130.497 Y168.841 E12.96087
G1 X130.196 Y168.936 E12.98144
G1 X129.125 Y169.19 E13.0532
G1 X128.451 Y169.284 E13.09756
G1 X127.908 Y169.322 E13.13305
G1 X127.082 Y169.34 E13.18691
G1 X83.208 Y169.342 E16.04705
G1 X82.327 Y169.33 E16.10448
G1 X81.76 Y169.301 E16.14149
G1 X81.549 Y169.282 E16.1553
G1 X80.736 Y169.163 E16.20887
G1 X80.508 Y169.117 E16.22403
G1 X79.525 Y168.849 E16.29045
G1 X79.223 Y168.744 E16.3113
G1 X78.158 Y168.279 E16.38705
G1 X77.912 Y168.148 E16.40522
G1 X77.248 Y167.748 E16.45575
G1 X76.607 Y167.277 E16.50761
G1 X76.015 Y166.776 E16.55817
G1 X75.516 Y166.27 E16.60449
G1 X74.796 Y165.387 E16.67877
G1 X74.603 Y165.11 E16.70078
G1 X74.193 Y164.452 E16.75132
G1 X73.867 Y163.801 E16.79878
G1 X73.46 Y162.756 E16.87189
G1 X73.367 Y162.452 E16.89261
G1 X73.141 Y161.494 E16.95678
G1 X73.104 Y161.273 E16.97138
G1 X73.026 Y160.647 E17.01251
G1 X72.991 Y159.989 E17.05546
G1 X72.981 Y159.331 E17.09836
G1 X72.98 Y133.529 E18.78039
G1 X72.992 Y132.649 E18.83777
G1 X73.021 Y132.082 E18.87478
G1 X73.04 Y131.871 E18.88859
G1 X73.159 Y131.058 E18.94215
G1 X73.205 Y130.83 E18.95731
G1 X73.329 Y130.308 E18.99229
G1 X74.276 Y127.138 E19.20797
G1 X74.943 Y124.647 E19.37607
G1 X75.555 Y122.068 E19.54887
G1 X76.093 Y119.486 E19.7208
G1 X76.54 Y116.969 E19.88745
G1 X76.932 Y114.346 E20.06035
G1 X77.247 Y111.735 E20.23179
G1 X77.483 Y109.17 E20.39971
G1 X77.65 Y106.53 E20.57215
G1 X77.742 Y103.946 E20.74071
G1 X77.759 Y101.297 E20.9134
G1 X77.705 Y98.722 E21.0813
G1 X77.572 Y96.067 E21.2546
G1 X77.372 Y93.501 E21.42238
G1 X77.089 Y90.852 E21.59606
G1 X76.743 Y88.287 E21.76478
G1 X76.317 Y85.7 E21.9357
G1 X75.821 Y83.133 E22.10614
G1 X75.252 Y80.586 E22.27627
G1 X74.618 Y78.076 E22.44503
G1 X73.713 Y74.917 E22.65925
G1 X73.391 Y73.863 E22.7311
G1 X73.242 Y73.296 E22.76932
G1 X73.198 Y73.098 E22.78254
G1 X73.076 Y72.39 E22.82937
G1 X73.053 Y72.204 E22.84159
G1 X73.002 Y71.572 E22.88292
G1 X72.981 Y70.641 E22.94363
G1 X72.98 Y44.834 E24.62599
G1 X72.992 Y43.966 E24.68258
G1 X73.029 Y43.321 E24.72469
G1 X73.056 Y43.053 E24.74225
G1 X73.238 Y41.999 E24.81198
G1 X73.316 Y41.684 E24.83313
G1 X73.656 Y40.645 E24.9044
G1 X73.746 Y40.425 E24.9199
G1 X74.076 Y39.723 E24.97046
M204 S3000
M205 X10 Y10
G0 F500 X74.583 Y39.962
M204 S1800
M205 X8 Y8
G1 F2400 X75.006 Y39.256 E25.02412
G1 X75.432 Y38.644 E25.07273
G1 X75.899 Y38.103 E25.11932
G1 X76.196 Y37.793 E25.1473
G1 X76.997 Y37.077 E25.21734
G1 X77.158 Y36.954 E25.23055
G1 X77.835 Y36.497 E25.2838
G1 X78.024 Y36.385 E25.29812
G1 X78.651 Y36.055 E25.34431
G1 X78.85 Y35.963 E25.3586
G1 X79.71 Y35.633 E25.41865
G1 X80.01 Y35.54 E25.43912
G1 X80.984 Y35.313 E25.50432
G1 X81.656 Y35.223 E25.54852
G1 X82.342 Y35.183 E25.59332
G1 X83.085 Y35.172 E25.64176
G1 X126.798 Y35.172 E28.4914
G1 X127.659 Y35.184 E28.54754
G1 X128.242 Y35.217 E28.5856
G1 X128.495 Y35.242 E28.60218
G1 X129.455 Y35.405 E28.66565
G1 X129.784 Y35.485 E28.68773
G1 X130.783 Y35.809 E28.75619
G1 X131.012 Y35.903 E28.77233
G1 X131.778 Y36.274 E28.82781
G1 X131.972 Y36.383 E28.84232
G1 X132.554 Y36.749 E28.88714
G1 X132.704 Y36.854 E28.89907
G1 X133.528 Y37.531 E28.96859
G1 X133.839 Y37.829 E28.99667
G1 X134.555 Y38.629 E29.06666
G1 X134.678 Y38.79 E29.07987
G1 X135.094 Y39.398 E29.1279
G1 X135.198 Y39.569 E29.14094
G1 X135.547 Y40.219 E29.18904
G1 X135.637 Y40.41 E29.2028
G1 X135.921 Y41.11 E29.25205
G1 X135.993 Y41.319 E29.26646
G1 X136.2 Y42.042 E29.31548
G1 X136.248 Y42.253 E29.32959
G1 X136.367 Y42.934 E29.37466
G1 X136.389 Y43.11 E29.38622
G1 X136.438 Y43.718 E29.42598
G1 X136.456 Y44.247 E29.46049
G1 X136.459 Y44.587 E29.48266
G1 X136.459 Y70.494 E31.17153
G1 X136.448 Y71.287 E31.22323
G1 X136.415 Y71.874 E31.26156
G1 X136.39 Y72.127 E31.27813
G1 X136.289 Y72.808 E31.32301
G1 X136.254 Y72.983 E31.33464
G1 X136.118 Y73.541 E31.37208
G1 X135.994 Y73.971 E31.40126
G1 X135.3 Y76.262 E31.55731
G1 X134.603 Y78.822 E31.73027
G1 X133.991 Y81.356 E31.90021
G1 X133.441 Y83.941 E32.0725
G1 X132.97 Y86.518 E32.24328
G1 X132.568 Y89.13 E32.41556
G1 X132.244 Y91.725 E32.58604
G1 X131.99 Y94.359 E32.75855
G1 X131.814 Y96.96 E32.92849
G1 X131.709 Y99.611 E33.10145
G1 X131.679 Y102.256 E33.27388
G1 X131.724 Y104.868 E33.44419
G1 X131.844 Y107.512 E33.61672
G1 X132.036 Y110.113 E33.78675
G1 X132.305 Y112.745 E33.95922
G1 X132.647 Y115.35 E34.1305
G1 X133.061 Y117.943 E34.30167
G1 X133.552 Y120.539 E34.47391
G1 X134.111 Y123.1 E34.64479
G1 X134.743 Y125.647 E34.81586
G1 X135.708 Y129.051 E35.04651
G1 X136.073 Y130.253 E35.12841
G1 X136.204 Y130.751 E35.16197
G1 X136.252 Y130.965 E35.17627
G1 X136.368 Y131.629 E35.22021
G1 X136.391 Y131.814 E35.23237
G1 X136.439 Y132.404 E35.27096
G1 X136.459 Y133.32 E35.33068
G1 X136.46 Y159.083 E37.01017
G1 X136.448 Y159.983 E37.06885
G1 X136.421 Y160.512 E37.10338
G1 X136.402 Y160.723 E37.11719
G1 X136.297 Y161.452 E37.1652
G1 X136.252 Y161.679 E37.18029
G1 X135.997 Y162.618 E37.24372
G1 X135.892 Y162.919 E37.2645
G1 X135.459 Y163.906 E37.33476
G1 X135.326 Y164.155 E37.35316
G1 X134.961 Y164.762 E37.39934
G1 X134.891 Y164.866 E37.40751
G1 X134.524 Y165.362 E37.44773
G1 X134.107 Y165.857 E37.48993
G1 X134.074 Y165.893 E37.49311
G1 X133.455 Y166.489 E37.54913
G1 X133.125 Y166.77 E37.57738
G1 X132.532 Y167.223 E37.62603
G1 X132.016 Y167.546 E37.66571
G1 X131.308 Y167.918 E37.71785
G1 X131.112 Y168.007 E37.73188
G1 X130.329 Y168.307 E37.78654
G1 X130.028 Y168.402 E37.80712
G1 X129.036 Y168.637 E37.87358
G1 X128.396 Y168.727 E37.91571
G1 X127.889 Y168.762 E37.94884
G1 X127.075 Y168.781 E38.00192
G1 X83.109 Y168.781 E40.86806
G1 X82.335 Y168.77 E40.91852
G1 X81.81 Y168.743 E40.95279
G1 X81.599 Y168.724 E40.9666
G1 X80.847 Y168.615 E41.01614
G1 X80.619 Y168.569 E41.0313
G1 X79.709 Y168.32 E41.0928
G1 X79.407 Y168.215 E41.11364
G1 X78.422 Y167.784 E41.18373
G1 X78.176 Y167.653 E41.2019
G1 X77.234 Y167.05 E41.27482
G1 X76.946 Y166.831 E41.2984
G1 X76.115 Y166.087 E41.37112
G1 X75.922 Y165.884 E41.38937
G1 X75.255 Y165.067 E41.45813
G1 X75.062 Y164.79 E41.48014
G1 X74.669 Y164.156 E41.52877
G1 X74.373 Y163.56 E41.57215
G1 X73.995 Y162.592 E41.63989
G1 X73.902 Y162.288 E41.66062
G1 X73.694 Y161.401 E41.72001
G1 X73.657 Y161.18 E41.73461
G1 X73.584 Y160.601 E41.77266
G1 X73.551 Y159.969 E41.81391
G1 X73.541 Y159.324 E41.85597
G1 X73.54 Y133.529 E43.53754
G1 X73.552 Y132.657 E43.59439
G1 X73.579 Y132.132 E43.62866
G1 X73.598 Y131.921 E43.64247
G1 X73.707 Y131.169 E43.69201
G1 X73.869 Y130.458 E43.73954
G1 X74.813 Y127.299 E43.95448
G1 X75.488 Y124.777 E44.12467
G1 X76.097 Y122.21 E44.29666
G1 X76.642 Y119.595 E44.47079
G1 X77.096 Y117.04 E44.63996
G1 X77.487 Y114.422 E44.81252
G1 X77.801 Y111.819 E44.98344
G1 X78.043 Y109.188 E45.15568
G1 X78.208 Y106.586 E45.32565
G1 X78.302 Y103.935 E45.49857
G1 X78.319 Y101.289 E45.67107
G1 X78.264 Y98.682 E45.84106
G1 X78.134 Y96.065 E46.01187
G1 X77.928 Y93.436 E46.18378
G1 X77.646 Y90.787 E46.35744
G1 X77.299 Y88.225 E46.52598
G1 X76.864 Y85.578 E46.70086
G1 X76.374 Y83.042 E46.86924
G1 X75.792 Y80.437 E47.04324
G1 X75.154 Y77.913 E47.21296
G1 X74.256 Y74.775 E47.42573
G1 X73.927 Y73.7 E47.49902
G1 X73.789 Y73.175 E47.53441
G1 X73.745 Y72.977 E47.54763
G1 X73.632 Y72.321 E47.59102
G1 X73.609 Y72.135 E47.60324
G1 X73.561 Y71.551 E47.64144
G1 X73.541 Y70.634 E47.70124
G1 X73.54 Y44.834 E49.38313
G1 X73.552 Y43.974 E49.4392
G1 X73.586 Y43.377 E49.47818
G1 X73.613 Y43.109 E49.49574
G1 X73.782 Y42.134 E49.56025
G1 X73.86 Y41.819 E49.58141
G1 X74.174 Y40.857 E49.64737
G1 X74.264 Y40.637 E49.66287
G1 X74.583 Y39.962 E49.71154
M204 S3000
M205 X10 Y10
G0 F500 X75.263 Y39.905
M204 S1800
M205 X8 Y8
G1 F2400 X75.482 Y39.551 E49.73868
G1 X75.892 Y38.965 E49.7853
G1 X76.304 Y38.49 E49.82629
G1 X76.601 Y38.18 E49.85428
G1 X77.337 Y37.522 E49.91863
G1 X77.498 Y37.399 E49.93184
G1 X78.12 Y36.979 E49.98077
G1 X78.309 Y36.867 E49.99509
G1 X78.886 Y36.564 E50.03758
G1 X79.085 Y36.472 E50.05187
G1 X79.876 Y36.168 E50.10711
G1 X80.176 Y36.075 E50.12759
G1 X81.071 Y35.867 E50.18749
G1 X81.707 Y35.78 E50.22933
G1 X82.364 Y35.743 E50.27223
G1 X83.004 Y35.733 E50.31396
G1 X126.798 Y35.732 E53.16888
G1 X127.651 Y35.744 E53.22449
G1 X128.187 Y35.774 E53.25949
G1 X128.44 Y35.799 E53.27606
G1 X129.323 Y35.949 E53.33445
G1 X129.652 Y36.029 E53.35652
G1 X130.57 Y36.327 E53.41944
G1 X130.799 Y36.421 E53.43558
G1 X131.504 Y36.762 E53.48663
G1 X131.698 Y36.871 E53.50114
G1 X132.233 Y37.208 E53.54236
G1 X132.383 Y37.313 E53.55429
G1 X133.141 Y37.935 E53.61821
G1 X133.452 Y38.233 E53.64629
G1 X134.11 Y38.969 E53.71065
G1 X134.233 Y39.13 E53.72386
G1 X134.615 Y39.689 E53.768
G1 X134.719 Y39.86 E53.78104
G1 X135.04 Y40.458 E53.82529
G1 X135.13 Y40.649 E53.83905
G1 X135.392 Y41.292 E53.88432
G1 X135.464 Y41.501 E53.89873
G1 X135.654 Y42.166 E53.94381
G1 X135.702 Y42.377 E53.95792
G1 X135.812 Y43.003 E53.99935
G1 X135.834 Y43.179 E54.01092
G1 X135.879 Y43.738 E54.04748
G1 X135.896 Y44.253 E54.08107
G1 X135.899 Y44.587 E54.10284
G1 X135.899 Y70.486 E55.79119
G1 X135.888 Y71.279 E55.84289
G1 X135.858 Y71.819 E55.87815
G1 X135.833 Y72.072 E55.89472
G1 X135.74 Y72.698 E55.93598
G1 X135.705 Y72.873 E55.94762
G1 X135.58 Y73.386 E55.98204
G1 X135.458 Y73.808 E56.01067
G1 X134.763 Y76.1 E56.16681
G1 X134.07 Y78.646 E56.33882
G1 X133.44 Y81.252 E56.5136
G1 X132.892 Y83.833 E56.6856
G1 X132.422 Y86.401 E56.85579
G1 X132.015 Y89.045 E57.03018
G1 X131.687 Y91.672 E57.20277
G1 X131.43 Y94.34 E57.3775
G1 X131.254 Y96.935 E57.54705
G1 X131.149 Y99.583 E57.71981
G1 X131.119 Y102.259 E57.89427
G1 X131.165 Y104.904 E58.06672
G1 X131.283 Y107.507 E58.23659
G1 X131.479 Y110.176 E58.41105
G1 X131.749 Y112.805 E58.58333
G1 X132.094 Y115.437 E58.75638
G1 X132.514 Y118.066 E58.92994
G1 X132.998 Y120.626 E59.09978
G1 X133.562 Y123.21 E59.2722
G1 X134.208 Y125.813 E59.44703
G1 X135.167 Y129.195 E59.6762
G1 X135.537 Y130.416 E59.75937
G1 X135.706 Y131.087 E59.80448
G1 X135.812 Y131.698 E59.8449
G1 X135.835 Y131.883 E59.85706
G1 X135.879 Y132.426 E59.89257
G1 X135.899 Y133.327 E59.95132
G1 X135.9 Y159.083 E61.63035
G1 X135.888 Y159.975 E61.68851
G1 X135.844 Y160.673 E61.7341
G1 X135.748 Y161.344 E61.77829
G1 X135.703 Y161.571 E61.79337
G1 X135.468 Y162.434 E61.85168
G1 X135.363 Y162.735 E61.87246
G1 X134.965 Y163.642 E61.93703
G1 X134.832 Y163.891 E61.95544
G1 X134.496 Y164.45 E61.99795
G1 X134.426 Y164.554 E62.00613
G1 X134.089 Y165.009 E62.04304
G1 X133.694 Y165.479 E62.08306
G1 X133.661 Y165.515 E62.08624
G1 X133.092 Y166.063 E62.13774
G1 X132.762 Y166.344 E62.166
G1 X131.91 Y166.956 E62.23438
G1 X131.727 Y167.066 E62.2483
G1 X131.076 Y167.408 E62.29624
G1 X130.88 Y167.497 E62.31027
G1 X130.16 Y167.773 E62.36054
G1 X129.859 Y167.868 E62.38112
G1 X128.948 Y168.084 E62.44215
G1 X128.341 Y168.169 E62.48211
G1 X127.544 Y168.213 E62.53414
G1 X126.992 Y168.221 E62.57013
G1 X83.117 Y168.221 E65.43034
G1 X82.343 Y168.21 E65.4808
G1 X81.649 Y168.166 E65.52613
G1 X80.957 Y168.066 E65.57171
G1 X80.729 Y168.02 E65.58687
G1 X79.893 Y167.791 E65.64338
G1 X79.591 Y167.686 E65.66422
G1 X78.685 Y167.29 E65.72868
G1 X78.439 Y167.159 E65.74685
G1 X77.573 Y166.604 E65.8139
G1 X77.285 Y166.385 E65.83749
G1 X76.521 Y165.701 E65.90434
G1 X76.328 Y165.498 E65.9226
G1 X75.715 Y164.747 E65.98579
G1 X75.522 Y164.47 E66.0078
G1 X75 Y163.573 E66.07546
G1 X74.878 Y163.318 E66.09389
G1 X74.531 Y162.428 E66.15616
G1 X74.438 Y162.124 E66.17688
G1 X74.246 Y161.309 E66.23147
G1 X74.209 Y161.088 E66.24608
G1 X74.143 Y160.555 E66.28109
G1 X74.11 Y159.948 E66.32072
G1 X74.1 Y159.236 E66.36714
G1 X74.101 Y133.438 E68.0489
G1 X74.112 Y132.665 E68.0993
G1 X74.156 Y131.971 E68.14463
G1 X74.256 Y131.279 E68.19021
G1 X74.409 Y130.607 E68.23514
G1 X75.356 Y127.434 E68.451
G1 X76.038 Y124.883 E68.62314
G1 X76.649 Y122.308 E68.79567
G1 X77.192 Y119.704 E68.96908
G1 X77.646 Y117.147 E69.13837
G1 X78.041 Y114.503 E69.31265
G1 X78.359 Y111.868 E69.48567
G1 X78.601 Y109.239 E69.65778
G1 X78.768 Y106.604 E69.8299
G1 X78.862 Y103.959 E70.00243
G1 X78.879 Y101.316 E70.17473
G1 X78.823 Y98.642 E70.34909
G1 X78.692 Y96.031 E70.51952
G1 X78.484 Y93.365 E70.69384
G1 X78.203 Y90.726 E70.86685
G1 X77.852 Y88.128 E71.03775
G1 X77.423 Y85.525 E71.20973
G1 X76.913 Y82.883 E71.38514
G1 X76.341 Y80.322 E71.5562
G1 X75.698 Y77.78 E71.72714
