;FLAVOR:Marlin
;TIME:5941
;Filament used: 3.54682m
;Layer height: 0.2
;MINX:71.281
;MINY:41.28
;MINZ:0.2
;MAXX:138.72
;MAXY:168.72
;MAXZ:5.8
;Generated with Cura_SteamEngine 4.11.0
M140 S60
M105
M190 S60
M104 S200
M105
M109 S200
M82 ;absolute extrusion mode
G21 ;metric values
G90 ;absolute positioning
M82 ;set extruder to absolute mode
M107 ;start with the fan off
G28 X0 Y0 ;move X/Y to min endstops
G28 Z0 ;move Z to min endstops
G1 Z15.0 F100 ;move the platform down 15mm
G92 E0 ;zero the extruded length
G1 F200 E3 ;extrude 3mm of feed stock
G92 E0 ;zero the extruded length again
G1 F100
G0 Y20 F100
M117 Printing...
G5
G92 E0
G92 E0
G1 F2400 E-3
;LAYER_COUNT:29
;LAYER:0
M107
M204 S3000
M205 X10 Y10
G1 F600 Z0.275
G0 F500 X72.442 Y45.529 Z0.275
M204 S1800
M205 X8 Y8
;TYPE:SKIRT
G1 F600 Z0.2
G1 F2400 E0
G1 X72.825 Y44.934 E0.04613
G1 X73.293 Y44.316 E0.09666
G1 X73.732 Y43.838 E0.13897
G1 X73.807 Y43.763 E0.14589
G1 X74.382 Y43.243 E0.19643
G1 X74.933 Y42.831 E0.24128
G1 X75.585 Y42.41 E0.29187
G1 X76.13 Y42.126 E0.33193
G1 X76.215 Y42.086 E0.33806
G1 X76.933 Y41.792 E0.38864
G1 X77.597 Y41.589 E0.4339
G1 X78.353 Y41.415 E0.48447
G1 X79.098 Y41.322 E0.53342
G1 X79.646 Y41.294 E0.56919
G1 X80.579 Y41.28 E0.63002
G1 X129.496 Y41.28 E3.81891
G1 X130.293 Y41.291 E3.87087
G1 X130.828 Y41.316 E3.90578
G1 X131.597 Y41.409 E3.95628
G1 X132.182 Y41.534 E3.99528
G1 X132.428 Y41.597 E4.01183
G1 X133.168 Y41.828 E4.06237
G1 X133.645 Y42.023 E4.09596
G1 X133.754 Y42.072 E4.10375
G1 X134.444 Y42.426 E4.15431
G1 X134.892 Y42.707 E4.18878
G1 X135.066 Y42.825 E4.20249
G1 X135.684 Y43.293 E4.25302
G1 X136.125 Y43.695 E4.29192
G1 X136.197 Y43.766 E4.29852
G1 X136.72 Y44.338 E4.34904
G1 X137.168 Y44.931 E4.39749
G1 X137.589 Y45.583 E4.44809
G1 X137.874 Y46.13 E4.48829
G1 X137.914 Y46.215 E4.49442
G1 X138.208 Y46.933 E4.545
G1 X138.411 Y47.597 E4.59026
G1 X138.585 Y48.353 E4.64083
G1 X138.677 Y49.088 E4.68912
G1 X138.706 Y49.644 E4.72542
G1 X138.72 Y50.576 E4.78618
G1 X138.719 Y159.591 E11.89285
G1 X138.709 Y160.291 E11.93849
G1 X138.684 Y160.828 E11.97354
G1 X138.591 Y161.597 E12.02403
G1 X138.471 Y162.161 E12.06162
G1 X138.409 Y162.406 E12.0781
G1 X138.18 Y163.147 E12.12866
G1 X137.965 Y163.673 E12.1657
G1 X137.915 Y163.783 E12.17358
G1 X137.558 Y164.471 E12.22411
G1 X137.175 Y165.066 E12.27024
G1 X136.707 Y165.684 E12.32077
G1 X136.304 Y166.127 E12.35981
G1 X136.23 Y166.202 E12.36668
G1 X135.658 Y166.725 E12.41721
G1 X135.053 Y167.179 E12.46652
G1 X134.4 Y167.598 E12.51709
G1 X133.839 Y167.889 E12.55829
G1 X133.753 Y167.929 E12.56448
G1 X133.034 Y168.219 E12.61502
G1 X132.411 Y168.409 E12.65748
G1 X131.655 Y168.583 E12.70805
G1 X130.902 Y168.678 E12.75753
G1 X130.354 Y168.706 E12.7933
G1 X129.421 Y168.72 E12.85413
G1 X80.395 Y168.719 E16.05012
G1 X79.707 Y168.709 E16.09498
G1 X79.172 Y168.684 E16.12989
G1 X78.403 Y168.591 E16.18039
G1 X77.818 Y168.466 E16.21939
G1 X77.572 Y168.403 E16.23594
G1 X76.832 Y168.172 E16.28648
G1 X76.355 Y167.977 E16.32007
G1 X76.246 Y167.928 E16.32786
G1 X75.556 Y167.574 E16.37842
G1 X75.108 Y167.293 E16.41289
G1 X74.934 Y167.175 E16.4266
G1 X74.316 Y166.707 E16.47713
G1 X73.838 Y166.268 E16.51944
G1 X73.762 Y166.192 E16.52645
G1 X73.242 Y165.617 E16.57699
G1 X72.82 Y165.051 E16.62301
G1 X72.401 Y164.398 E16.67359
G1 X72.123 Y163.864 E16.71284
G1 X72.084 Y163.781 E16.71881
G1 X71.791 Y163.063 E16.76937
G1 X71.586 Y162.39 E16.81523
G1 X71.415 Y161.634 E16.86576
G1 X71.331 Y160.985 E16.90842
G1 X71.317 Y160.82 E16.91922
G1 X71.291 Y160.277 E16.95465
G1 X71.281 Y159.46 E17.00792
G1 X71.281 Y50.372 E24.11935
G1 X71.291 Y49.701 E24.1631
G1 X71.317 Y49.161 E24.19834
G1 X71.411 Y48.391 E24.24891
G1 X71.529 Y47.839 E24.28571
G1 X71.591 Y47.594 E24.30218
G1 X71.82 Y46.853 E24.35274
G1 X72.035 Y46.327 E24.38979
G1 X72.085 Y46.217 E24.39766
G1 X72.442 Y45.529 E24.44819
M204 S3000
M205 X10 Y10
G0 F500 X72.939 Y45.787
M204 S1800
M205 X8 Y8
G1 F2400 X73.289 Y45.249 E24.49003
G1 X73.74 Y44.655 E24.53865
G1 X74.128 Y44.234 E24.57598
G1 X74.203 Y44.159 E24.58289
G1 X75.053 Y43.435 E24.65568
G1 X75.261 Y43.285 E24.6724
G1 X75.888 Y42.882 E24.72098
G1 X76.368 Y42.632 E24.75626
G1 X76.453 Y42.592 E24.76239
G1 X77.144 Y42.311 E24.81102
G1 X77.751 Y42.128 E24.85235
G1 X78.478 Y41.962 E24.90096
G1 X79.14 Y41.88 E24.94445
G1 X79.655 Y41.854 E24.97806
G1 X80.579 Y41.84 E25.0383
G1 X129.496 Y41.84 E28.2272
G1 X130.285 Y41.851 E28.27864
G1 X130.789 Y41.875 E28.31153
G1 X131.53 Y41.966 E28.3602
G1 X132.043 Y42.077 E28.39441
G1 X132.289 Y42.14 E28.41097
G1 X133 Y42.363 E28.45954
G1 X133.525 Y42.583 E28.49665
G1 X134.188 Y42.925 E28.54528
G1 X134.751 Y43.289 E28.58899
G1 X135.345 Y43.74 E28.63761
G1 X135.732 Y44.093 E28.67176
G1 X135.804 Y44.164 E28.67835
G1 X136.306 Y44.716 E28.72699
G1 X136.714 Y45.259 E28.77126
G1 X137.117 Y45.886 E28.81985
G1 X137.368 Y46.368 E28.85528
G1 X137.408 Y46.453 E28.8614
G1 X137.689 Y47.144 E28.91003
G1 X137.872 Y47.751 E28.95136
G1 X138.038 Y48.478 E28.99997
G1 X138.119 Y49.13 E29.04281
G1 X138.146 Y49.653 E29.07695
G1 X138.16 Y50.576 E29.13712
G1 X138.159 Y159.583 E36.24327
G1 X138.149 Y160.283 E36.28891
G1 X138.125 Y160.789 E36.32193
G1 X138.034 Y161.53 E36.3706
G1 X137.928 Y162.023 E36.40348
G1 X137.866 Y162.268 E36.41995
G1 X137.645 Y162.981 E36.46861
G1 X137.405 Y163.551 E36.50893
G1 X137.061 Y164.213 E36.55757
G1 X136.711 Y164.751 E36.59941
G1 X136.26 Y165.345 E36.64803
G1 X135.905 Y165.733 E36.68231
G1 X135.831 Y165.808 E36.68918
G1 X135.28 Y166.31 E36.73777
G1 X134.726 Y166.724 E36.78285
G1 X134.098 Y167.126 E36.83146
G1 X133.603 Y167.381 E36.86776
G1 X133.517 Y167.421 E36.87395
G1 X132.498 Y167.801 E36.94484
G1 X132.257 Y167.87 E36.96118
G1 X131.53 Y168.037 E37.00981
G1 X130.86 Y168.12 E37.05382
G1 X130.345 Y168.146 E37.08744
G1 X129.421 Y168.16 E37.14768
G1 X80.403 Y168.159 E40.34316
G1 X79.715 Y168.149 E40.38801
G1 X79.211 Y168.125 E40.42091
G1 X78.47 Y168.034 E40.46957
G1 X77.957 Y167.923 E40.50379
G1 X77.711 Y167.86 E40.52034
G1 X77 Y167.637 E40.56892
G1 X76.475 Y167.417 E40.60603
G1 X75.812 Y167.075 E40.65466
G1 X75.249 Y166.711 E40.69837
G1 X74.655 Y166.26 E40.74699
G1 X74.234 Y165.872 E40.78431
G1 X74.158 Y165.796 E40.79132
G1 X73.659 Y165.242 E40.83992
G1 X73.275 Y164.724 E40.88196
G1 X72.873 Y164.096 E40.93056
G1 X72.63 Y163.626 E40.96506
G1 X72.591 Y163.543 E40.97103
G1 X72.31 Y162.852 E41.01966
G1 X72.125 Y162.238 E41.06147
G1 X71.962 Y161.511 E41.11004
G1 X71.889 Y160.937 E41.14776
G1 X71.875 Y160.772 E41.15855
G1 X71.851 Y160.271 E41.19125
G1 X71.841 Y159.46 E41.24412
G1 X71.841 Y50.38 E48.35503
G1 X71.851 Y49.709 E48.39878
G1 X71.876 Y49.2 E48.432
G1 X71.968 Y48.459 E48.48068
G1 X72.134 Y47.732 E48.52929
G1 X72.355 Y47.019 E48.57795
G1 X72.595 Y46.449 E48.61827
G1 X72.939 Y45.787 E48.66691
M204 S3000
M205 X10 Y10
G0 F500 X73.437 Y46.047
M204 S1800
M205 X8 Y8
G1 F2400 X73.752 Y45.563 E48.70455
G1 X74.186 Y44.994 E48.7512
G1 X74.599 Y44.555 E48.79049
G1 X75.381 Y43.889 E48.85746
G1 X75.589 Y43.739 E48.87417
G1 X76.191 Y43.354 E48.92076
G1 X76.692 Y43.099 E48.9574
G1 X77.662 Y42.735 E49.02494
G1 X77.904 Y42.666 E49.04135
G1 X78.602 Y42.509 E49.08799
G1 X79.182 Y42.439 E49.12607
G1 X79.664 Y42.414 E49.15754
G1 X80.579 Y42.4 E49.21719
G1 X129.496 Y42.4 E52.40608
G1 X130.277 Y42.411 E52.457
G1 X130.751 Y42.434 E52.48794
G1 X131.461 Y42.522 E52.53458
G1 X132.15 Y42.682 E52.58069
G1 X132.832 Y42.898 E52.62733
G1 X133.295 Y43.094 E52.6601
G1 X133.93 Y43.423 E52.70672
G1 X134.437 Y43.752 E52.74612
G1 X135.006 Y44.186 E52.79277
G1 X135.411 Y44.563 E52.82885
G1 X136.107 Y45.375 E52.89856
G1 X136.26 Y45.587 E52.91561
G1 X136.645 Y46.189 E52.96219
G1 X136.901 Y46.692 E52.99898
G1 X137.265 Y47.662 E53.06652
G1 X137.334 Y47.904 E53.08293
G1 X137.491 Y48.602 E53.12957
G1 X137.561 Y49.173 E53.16707
G1 X137.586 Y49.662 E53.19899
G1 X137.6 Y50.576 E53.25858
G1 X137.599 Y159.575 E60.36421
G1 X137.589 Y160.275 E60.40985
G1 X137.566 Y160.751 E60.44091
G1 X137.478 Y161.461 E60.48755
G1 X137.323 Y162.131 E60.53238
G1 X137.109 Y162.814 E60.57904
G1 X136.895 Y163.319 E60.6148
G1 X136.563 Y163.953 E60.66145
G1 X136.248 Y164.437 E60.6991
G1 X135.814 Y165.006 E60.74575
G1 X135.433 Y165.415 E60.78219
G1 X134.903 Y165.895 E60.8288
G1 X134.4 Y166.269 E60.86966
G1 X133.796 Y166.653 E60.91632
G1 X133.281 Y166.913 E60.95393
G1 X132.344 Y167.263 E61.01914
G1 X132.103 Y167.332 E61.03548
G1 X131.405 Y167.49 E61.08213
G1 X130.818 Y167.561 E61.12068
G1 X130.336 Y167.586 E61.15214
G1 X129.421 Y167.6 E61.2118
G1 X80.411 Y167.599 E64.40675
G1 X79.723 Y167.589 E64.45161
G1 X79.249 Y167.566 E64.48254
G1 X78.539 Y167.478 E64.52918
G1 X77.85 Y167.318 E64.57529
G1 X77.168 Y167.102 E64.62193
G1 X76.705 Y166.906 E64.65471
G1 X76.07 Y166.577 E64.70133
G1 X75.563 Y166.248 E64.74073
G1 X74.994 Y165.814 E64.78738
G1 X74.554 Y165.4 E64.82676
G1 X73.88 Y164.607 E64.89461
G1 X73.73 Y164.398 E64.91138
G1 X73.346 Y163.794 E64.95804
G1 X73.098 Y163.305 E64.99378
G1 X72.73 Y162.32 E65.06233
G1 X72.664 Y162.086 E65.07818
G1 X72.509 Y161.388 E65.12479
G1 X72.447 Y160.89 E65.1575
G1 X72.41 Y160.264 E65.19838
G1 X72.401 Y159.46 E65.2508
G1 X72.401 Y50.389 E72.36112
G1 X72.411 Y49.718 E72.40487
G1 X72.435 Y49.239 E72.43614
G1 X72.524 Y48.529 E72.48278
G1 X72.677 Y47.869 E72.52695
G1 X72.891 Y47.186 E72.57361
G1 X73.105 Y46.681 E72.60936
G1 X73.437 Y46.047 E72.65602
M204 S3000
M205 X10 Y10
G0 F500 X74.098 Y46.051
M204 S1800
M205 X8 Y8
G1 F2400 X74.216 Y45.877 E72.66972
G1 X74.632 Y45.335 E72.71426
G1 X74.994 Y44.95 E72.74871
G1 X75.708 Y44.343 E72.8098
G1 X75.916 Y44.193 E72.82652
G1 X76.493 Y43.827 E72.87107
G1 X76.93 Y43.606 E72.90299
G1 X77.816 Y43.274 E72.96467
G1 X78.058 Y43.205 E72.98107
G1 X78.725 Y43.056 E73.02563
G1 X79.224 Y42.997 E73.05838
G1 X79.673 Y42.974 E73.08769
G1 X80.579 Y42.96 E73.14676
G1 X129.496 Y42.96 E76.33565
G1 X130.269 Y42.971 E76.38605
G1 X130.713 Y42.993 E76.41503
G1 X131.391 Y43.079 E76.45958
G1 X132.011 Y43.225 E76.50111
G1 X132.956 Y43.555 E76.56636
G1 X133.065 Y43.604 E76.57415
G1 X133.949 Y44.098 E76.64017
G1 X134.123 Y44.216 E76.65387
G1 X134.665 Y44.632 E76.69841
G1 X135.018 Y44.962 E76.72991
G1 X135.653 Y45.702 E76.79348
G1 X135.806 Y45.914 E76.81052
G1 X136.172 Y46.491 E76.85507
G1 X136.394 Y46.93 E76.88714
G1 X136.726 Y47.816 E76.94882
G1 X136.795 Y48.058 E76.96522
G1 X136.944 Y48.725 E77.00978
G1 X137.01 Y49.32 E77.0488
G1 X137.026 Y49.671 E77.07171
G1 X137.04 Y50.576 E77.13071
G1 X137.039 Y159.567 E84.23582
G1 X137.029 Y160.267 E84.28146
G1 X137.007 Y160.713 E84.31057
G1 X136.921 Y161.391 E84.35512
G1 X136.781 Y161.994 E84.39547
G1 X136.574 Y162.645 E84.44001
G1 X136.386 Y163.088 E84.47138
G1 X135.902 Y163.949 E84.53577
G1 X135.784 Y164.123 E84.54947
G1 X135.368 Y164.665 E84.59401
G1 X135.034 Y165.022 E84.62588
G1 X134.282 Y165.665 E84.69038
G1 X134.073 Y165.815 E84.70715
G1 X133.496 Y166.18 E84.75166
G1 X133.045 Y166.405 E84.78452
G1 X132.189 Y166.724 E84.84407
G1 X131.948 Y166.793 E84.86041
G1 X131.282 Y166.943 E84.90492
G1 X130.776 Y167.003 E84.93813
G1 X130.327 Y167.026 E84.96744
G1 X129.421 Y167.04 E85.02651
G1 X80.419 Y167.039 E88.22095
G1 X79.731 Y167.029 E88.2658
G1 X79.287 Y167.007 E88.29478
G1 X78.609 Y166.921 E88.33933
G1 X77.989 Y166.775 E88.38086
G1 X77.044 Y166.445 E88.44611
G1 X76.935 Y166.396 E88.4539
G1 X76.051 Y165.902 E88.51992
G1 X75.877 Y165.784 E88.53362
G1 X75.335 Y165.368 E88.57816
G1 X74.949 Y165.005 E88.6127
G1 X74.334 Y164.28 E88.67468
G1 X74.184 Y164.071 E88.69145
G1 X73.819 Y163.494 E88.73596
G1 X73.604 Y163.067 E88.76713
G1 X73.269 Y162.168 E88.82967
G1 X73.203 Y161.934 E88.84552
G1 X73.057 Y161.267 E88.89003
G1 X72.991 Y160.678 E88.92867
G1 X72.97 Y160.257 E88.95614
G1 X72.961 Y159.46 E89.0081
G1 X72.961 Y50.397 E96.11791
G1 X72.971 Y49.726 E96.16165
G1 X72.993 Y49.278 E96.19089
G1 X73.081 Y48.6 E96.23546
G1 X73.219 Y48.006 E96.27522
G1 X73.426 Y47.355 E96.31975
G1 X73.614 Y46.912 E96.35112
G1 X74.098 Y46.051 E96.41551
M204 S3000
M205 X10 Y10
G0 F500 X74.561 Y46.366
M204 S1800
M205 X8 Y8
G1 F2400 X74.679 Y46.192 E96.42922
G1 X75.076 Y45.677 E96.47161
G1 X75.39 Y45.346 E96.50135
G1 X76.036 Y44.797 E96.55661
G1 X76.244 Y44.647 E96.57333
G1 X76.793 Y44.301 E96.61564
G1 X77.169 Y44.113 E96.64304
G1 X77.969 Y43.812 E96.69876
G1 X78.211 Y43.743 E96.71517
G1 X78.846 Y43.604 E96.75754
G1 X79.372 Y43.548 E96.79203
G1 X79.682 Y43.534 E96.81226
G1 X80.579 Y43.52 E96.87074
G1 X129.496 Y43.52 E100.05963
G1 X130.261 Y43.531 E100.10951
G1 X130.675 Y43.551 E100.13653
G1 X131.626 Y43.704 E100.19932
G1 X131.872 Y43.767 E100.21587
G1 X132.727 Y44.066 E100.27492
G1 X132.836 Y44.115 E100.28271
G1 X133.634 Y44.561 E100.34231
G1 X133.808 Y44.679 E100.35601
G1 X134.552 Y45.289 E100.41873
G1 X134.624 Y45.36 E100.42532
G1 X135.198 Y46.03 E100.48284
G1 X135.351 Y46.242 E100.49988
G1 X135.698 Y46.791 E100.54222
G1 X135.887 Y47.169 E100.56977
G1 X136.188 Y47.969 E100.62549
G1 X136.257 Y48.211 E100.6419
G1 X136.396 Y48.846 E100.68427
G1 X136.452 Y49.363 E100.71817
G1 X136.466 Y49.679 E100.73879
G1 X136.48 Y50.576 E100.79727
G1 X136.479 Y159.559 E107.90186
G1 X136.469 Y160.259 E107.9475
G1 X136.449 Y160.675 E107.97465
G1 X136.3 Y161.611 E108.03643
G1 X136.238 Y161.856 E108.05291
G1 X135.926 Y162.746 E108.11439
G1 X135.876 Y162.856 E108.12227
G1 X135.439 Y163.634 E108.18044
G1 X135.321 Y163.808 E108.19414
G1 X134.709 Y164.553 E108.257
G1 X134.635 Y164.628 E108.26386
G1 X133.956 Y165.21 E108.32216
G1 X133.747 Y165.36 E108.33893
G1 X133.197 Y165.705 E108.38126
G1 X132.809 Y165.897 E108.40948
G1 X132.035 Y166.186 E108.46334
G1 X131.794 Y166.255 E108.47968
G1 X131.16 Y166.395 E108.52201
G1 X130.628 Y166.452 E108.55689
G1 X130.318 Y166.466 E108.57712
G1 X129.421 Y166.48 E108.6356
G1 X80.427 Y166.479 E111.82951
G1 X79.739 Y166.469 E111.87437
G1 X79.325 Y166.449 E111.90139
G1 X78.374 Y166.296 E111.96418
G1 X78.128 Y166.233 E111.98073
G1 X77.273 Y165.934 E112.03978
G1 X77.164 Y165.885 E112.04757
G1 X76.366 Y165.439 E112.10717
G1 X76.192 Y165.321 E112.12087
G1 X75.677 Y164.924 E112.16326
G1 X75.345 Y164.609 E112.1931
G1 X74.789 Y163.954 E112.2491
G1 X74.639 Y163.745 E112.26588
G1 X74.15 Y162.911 E112.3289
G1 X74.111 Y162.828 E112.33488
G1 X73.808 Y162.016 E112.39138
G1 X73.742 Y161.782 E112.40723
G1 X73.605 Y161.147 E112.44958
G1 X73.549 Y160.63 E112.48348
G1 X73.53 Y160.25 E112.50828
G1 X73.521 Y159.46 E112.55978
G1 X73.521 Y50.405 E119.66906
G1 X73.531 Y49.734 E119.71281
G1 X73.552 Y49.317 E119.74003
G1 X73.7 Y48.389 E119.80129
G1 X73.762 Y48.144 E119.81776
G1 X74.074 Y47.254 E119.87925
G1 X74.124 Y47.144 E119.88712
G1 X74.561 Y46.366 E119.94529
M204 S3000
M205 X10 Y10
G1 F2400 E116.94529
;MESH:J120_cover.stl
G0 F500 X78.166 Y49.477
G0 X79.459 Y49.833
G0 X128.297 Y155.206
G0 X130.187 Y160.46
G1 F2400 E119.94529
G0 F500 X130.187 Y160.92
M204 S1800
M205 X8 Y8
;TYPE:WALL-OUTER
G1 F300 X79.809 Y160.92 E123.22943
G1 X79.55 Y160.875 E123.24657
G1 X79.334 Y160.747 E123.26293
G1 X79.178 Y160.561 E123.27876
G1 X79.092 Y160.322 E123.29532
G1 X79.081 Y160.193 E123.30376
G1 X79.08 Y49.809 E130.49967
G1 X79.125 Y49.55 E130.51681
G1 X79.253 Y49.334 E130.53318
G1 X79.439 Y49.178 E130.54901
G1 X79.678 Y49.092 E130.56556
G1 X79.813 Y49.08 E130.5744
G1 X130.191 Y49.08 E133.85853
G1 X130.45 Y49.125 E133.87567
G1 X130.666 Y49.253 E133.89204
G1 X130.822 Y49.439 E133.90786
G1 X130.908 Y49.678 E133.92442
G1 X130.92 Y49.813 E133.93326
G1 X130.92 Y53.073 E134.14578
G1 X130.92 Y53.095 E134.14721
G1 X130.92 Y53.443 E134.1699
G1 X130.92 Y53.789 E134.19245
G1 X130.92 Y64.811 E134.91098
G1 X130.92 Y65.157 E134.93353
G1 X130.92 Y65.505 E134.95622
G1 X130.92 Y65.527 E134.95765
G1 X130.92 Y160.191 E141.12878
G1 X130.875 Y160.45 E141.14592
G1 X130.747 Y160.666 E141.16229
G1 X130.561 Y160.822 E141.17811
G1 X130.322 Y160.908 E141.19467
G1 X130.187 Y160.92 E141.20351
M204 S3000
M205 X10 Y10
G0 F500 X129.987 Y160.92
G0 X129.987 Y160.304
G0 X125.434 Y79.423
G0 X125.508 Y78.97
M204 S1800
M205 X8 Y8
G1 F300 X125.839 Y79.024 E141.22537
G1 X126.175 Y79.023 E141.24728
G1 X126.506 Y78.966 E141.26917
G1 X126.822 Y78.857 E141.29096
