;FLAVOR:Marlin
;TIME:6946
;Filament used: 4.64659m
;Layer height: 0.2
;MINX:69.98
;MINY:41.98
;MINZ:0.2
;MAXX:140.02
;MAXY:168.019
;MAXZ:6.075
;Generated with Cura_SteamEngine 4.11.0
M140 S60
M105
M190 S60
M104 S200
M105
M109 S200
M82 ;absolute extrusion mode
G21 ;metric values
G90 ;absolute positioning
M82 ;set extruder to absolute mode
M107 ;start with the fan off
G28 X0 Y0 ;move X/Y to min endstops
G28 Z0 ;move Z to min endstops
G1 Z15.0 F100 ;move the platform down 15mm
G92 E0 ;zero the extruded length
G1 F200 E3 ;extrude 3mm of feed stock
G92 E0 ;zero the extruded length again
G1 F100
G0 Y20 F100
M117 Printing...
G5
G92 E0
G92 E0
G1 F2400 E-3
;LAYER_COUNT:30
;LAYER:0
M107
M204 S3000
M205 X10 Y10
G1 F600 Z0.275
G0 F500 X71.397 Y45.828 Z0.275
M204 S1800
M205 X8 Y8
;TYPE:SKIRT
G1 F600 Z0.2
G1 F2400 E0
G1 X71.529 Y45.633 E0.01535
G1 X71.996 Y45.014 E0.0659
G1 X72.439 Y44.531 E0.10862
G1 X72.507 Y44.463 E0.11489
G1 X73.082 Y43.943 E0.16543
G1 X73.633 Y43.531 E0.21028
G1 X74.285 Y43.11 E0.26088
G1 X74.83 Y42.826 E0.30094
G1 X74.915 Y42.786 E0.30706
G1 X75.633 Y42.492 E0.35764
G1 X76.297 Y42.289 E0.40291
G1 X77.053 Y42.115 E0.45348
G1 X77.798 Y42.022 E0.50242
G1 X78.346 Y41.994 E0.53819
G1 X79.279 Y41.98 E0.59902
G1 X130.796 Y41.98 E3.95741
G1 X131.593 Y41.991 E4.00937
G1 X132.111 Y42.015 E4.04317
G1 X132.881 Y42.107 E4.09373
G1 X133.444 Y42.227 E4.13125
G1 X133.729 Y42.299 E4.15042
G1 X134.47 Y42.527 E4.20096
G1 X135.173 Y42.826 E4.25076
G1 X135.243 Y42.86 E4.25583
G1 X136.172 Y43.397 E4.32578
G1 X136.367 Y43.529 E4.34113
G1 X136.986 Y43.996 E4.39168
G1 X137.428 Y44.397 E4.43059
G1 X137.493 Y44.461 E4.43653
G1 X138.017 Y45.033 E4.4871
G1 X138.468 Y45.631 E4.53593
G1 X138.889 Y46.283 E4.58652
G1 X139.174 Y46.83 E4.62673
G1 X139.214 Y46.915 E4.63286
G1 X139.508 Y47.633 E4.68344
G1 X139.711 Y48.297 E4.7287
G1 X139.885 Y49.053 E4.77927
G1 X139.977 Y49.788 E4.82756
G1 X140.006 Y50.34 E4.86359
G1 X140.02 Y51.254 E4.92318
G1 X140.019 Y158.867 E11.93846
G1 X140.009 Y159.588 E11.98547
G1 X139.985 Y160.111 E12.0196
G1 X139.893 Y160.881 E12.07015
G1 X139.764 Y161.479 E12.11003
G1 X139.689 Y161.77 E12.12962
G1 X139.457 Y162.51 E12.18018
G1 X139.154 Y163.213 E12.23008
G1 X139.123 Y163.276 E12.23466
G1 X138.613 Y164.157 E12.30102
G1 X138.481 Y164.353 E12.31642
G1 X138.016 Y164.973 E12.36695
G1 X137.601 Y165.43 E12.40719
G1 X137.534 Y165.498 E12.41341
G1 X136.962 Y166.021 E12.46394
G1 X136.562 Y166.329 E12.49685
G1 X136.353 Y166.479 E12.51362
G1 X135.7 Y166.898 E12.5642
G1 X135.139 Y167.189 E12.6054
G1 X135.053 Y167.229 E12.61158
G1 X134.334 Y167.519 E12.66212
G1 X133.716 Y167.707 E12.70423
G1 X132.96 Y167.881 E12.7548
G1 X132.307 Y167.967 E12.79774
G1 X132.135 Y167.982 E12.80899
G1 X131.581 Y168.009 E12.84515
G1 X130.795 Y168.019 E12.8964
G1 X79.097 Y168.019 E16.26658
G1 X78.403 Y168.009 E16.31183
G1 X77.903 Y167.985 E16.34446
G1 X77.792 Y167.976 E16.35172
G1 X77.024 Y167.874 E16.40223
G1 X76.307 Y167.71 E16.45017
G1 X75.565 Y167.485 E16.50072
G1 X74.827 Y167.174 E16.55293
G1 X74.757 Y167.14 E16.558
G1 X73.828 Y166.603 E16.62795
G1 X73.633 Y166.471 E16.6433
G1 X73.014 Y166.004 E16.69385
G1 X72.531 Y165.561 E16.73658
G1 X72.462 Y165.492 E16.74294
G1 X71.942 Y164.917 E16.79348
G1 X71.525 Y164.359 E16.83889
G1 X71.105 Y163.708 E16.88939
G1 X70.802 Y163.121 E16.93246
G1 X70.765 Y163.041 E16.9382
G1 X70.476 Y162.321 E16.98878
G1 X70.283 Y161.678 E17.03254
G1 X70.111 Y160.921 E17.08315
G1 X70.024 Y160.221 E17.12913
G1 X69.994 Y159.652 E17.16628
G1 X69.98 Y158.696 E17.22861
G1 X69.981 Y51.071 E24.24466
G1 X69.991 Y50.403 E24.28822
G1 X70.015 Y49.889 E24.32176
G1 X70.107 Y49.119 E24.37231
G1 X70.23 Y48.544 E24.41065
G1 X70.303 Y48.257 E24.42995
G1 X70.533 Y47.517 E24.48047
G1 X70.826 Y46.828 E24.52928
G1 X70.859 Y46.76 E24.5342
G1 X71.397 Y45.828 E24.60436
M204 S3000
M205 X10 Y10
G0 F500 X71.86 Y46.141
M204 S1800
M205 X8 Y8
G1 F2400 X71.992 Y45.946 E24.61971
G1 X72.443 Y45.352 E24.66833
G1 X72.835 Y44.927 E24.70602
G1 X72.903 Y44.859 E24.71229
G1 X73.753 Y44.135 E24.78508
G1 X73.961 Y43.985 E24.80179
G1 X74.588 Y43.582 E24.85038
G1 X75.068 Y43.332 E24.88566
G1 X75.153 Y43.292 E24.89179
G1 X75.844 Y43.011 E24.94041
G1 X76.451 Y42.828 E24.98174
G1 X77.178 Y42.662 E25.03036
G1 X77.84 Y42.58 E25.07384
G1 X78.355 Y42.554 E25.10746
G1 X79.279 Y42.54 E25.1677
G1 X130.796 Y42.54 E28.52609
G1 X131.585 Y42.551 E28.57753
G1 X132.073 Y42.574 E28.60937
G1 X132.813 Y42.664 E28.65797
G1 X133.307 Y42.77 E28.69091
G1 X133.592 Y42.842 E28.71007
G1 X134.304 Y43.063 E28.75867
G1 X134.928 Y43.329 E28.80289
G1 X134.998 Y43.363 E28.80796
G1 X135.859 Y43.86 E28.87277
G1 X136.054 Y43.992 E28.88812
G1 X136.648 Y44.443 E28.93674
G1 X137.035 Y44.797 E28.97093
G1 X137.1 Y44.861 E28.97688
G1 X137.603 Y45.412 E29.02552
G1 X138.014 Y45.959 E29.07012
G1 X138.417 Y46.586 E29.11871
G1 X138.668 Y47.068 E29.15413
G1 X138.708 Y47.153 E29.16026
G1 X138.989 Y47.844 E29.20889
G1 X139.172 Y48.451 E29.25022
G1 X139.338 Y49.178 E29.29883
G1 X139.419 Y49.83 E29.34166
G1 X139.446 Y50.349 E29.37554
G1 X139.46 Y51.254 E29.43454
G1 X139.459 Y158.86 E36.44936
G1 X139.449 Y159.581 E36.49637
G1 X139.426 Y160.073 E36.52848
G1 X139.336 Y160.813 E36.57707
G1 X139.222 Y161.339 E36.61216
G1 X139.147 Y161.63 E36.63175
G1 X138.922 Y162.341 E36.68037
G1 X138.652 Y162.966 E36.72475
G1 X138.621 Y163.029 E36.72933
G1 X138.149 Y163.844 E36.79072
G1 X138.017 Y164.04 E36.80613
G1 X137.568 Y164.635 E36.85472
G1 X137.202 Y165.037 E36.89016
G1 X137.135 Y165.105 E36.89638
G1 X136.584 Y165.607 E36.94497
G1 X136.026 Y166.024 E36.99039
G1 X135.398 Y166.426 E37.03899
G1 X134.903 Y166.681 E37.07529
G1 X134.817 Y166.721 E37.08148
G1 X133.79 Y167.103 E37.15291
G1 X133.562 Y167.168 E37.16836
G1 X132.835 Y167.334 E37.21698
G1 X132.259 Y167.409 E37.25484
G1 X132.087 Y167.424 E37.2661
G1 X131.573 Y167.449 E37.29965
G1 X130.795 Y167.459 E37.35037
G1 X79.105 Y167.459 E40.72003
G1 X78.411 Y167.449 E40.76528
G1 X77.838 Y167.418 E40.80269
G1 X77.098 Y167.318 E40.85137
G1 X76.442 Y167.166 E40.89526
G1 X75.728 Y166.949 E40.94391
G1 X75.072 Y166.671 E40.99036
G1 X75.002 Y166.637 E40.99543
G1 X74.141 Y166.14 E41.06024
G1 X73.946 Y166.008 E41.07559
G1 X73.352 Y165.557 E41.12421
G1 X72.927 Y165.165 E41.1619
G1 X72.858 Y165.096 E41.16826
G1 X72.359 Y164.542 E41.21687
G1 X71.98 Y164.032 E41.25829
G1 X71.577 Y163.404 E41.30693
G1 X71.31 Y162.886 E41.34492
G1 X71.273 Y162.806 E41.35067
G1 X70.891 Y161.771 E41.42259
G1 X70.822 Y161.526 E41.43918
G1 X70.658 Y160.798 E41.48783
G1 X70.582 Y160.178 E41.52855
G1 X70.554 Y159.644 E41.56341
G1 X70.54 Y158.696 E41.62522
G1 X70.541 Y51.08 E48.64069
G1 X70.551 Y50.412 E48.68424
G1 X70.574 Y49.927 E48.71589
G1 X70.664 Y49.187 E48.76449
G1 X70.773 Y48.682 E48.79817
G1 X70.846 Y48.395 E48.81747
G1 X71.068 Y47.683 E48.86609
G1 X71.329 Y47.072 E48.9094
G1 X71.362 Y47.004 E48.91433
G1 X71.86 Y46.141 E48.97929
M204 S3000
M205 X10 Y10
G0 F500 X72.324 Y46.455
M204 S1800
M205 X8 Y8
G1 F2400 X72.456 Y46.26 E48.99464
G1 X72.89 Y45.691 E49.04129
G1 X73.231 Y45.323 E49.07399
G1 X73.299 Y45.255 E49.08026
G1 X74.081 Y44.589 E49.14722
G1 X74.289 Y44.439 E49.16394
G1 X74.891 Y44.054 E49.21052
G1 X75.392 Y43.799 E49.24717
G1 X76.362 Y43.435 E49.31471
G1 X76.604 Y43.366 E49.33112
G1 X77.302 Y43.209 E49.37776
G1 X77.882 Y43.139 E49.41584
G1 X78.364 Y43.114 E49.4473
G1 X79.279 Y43.1 E49.50696
G1 X130.796 Y43.1 E52.86535
G1 X131.577 Y43.111 E52.91626
G1 X132.035 Y43.133 E52.94616
G1 X132.745 Y43.221 E52.99279
G1 X133.455 Y43.385 E53.0403
G1 X134.137 Y43.599 E53.0869
G1 X134.683 Y43.833 E53.12562
G1 X134.753 Y43.867 E53.13069
G1 X135.545 Y44.324 E53.1903
G1 X135.74 Y44.456 E53.20565
G1 X136.309 Y44.89 E53.2523
G1 X136.707 Y45.26 E53.28773
G1 X137.188 Y45.789 E53.33434
G1 X137.56 Y46.287 E53.37486
G1 X137.945 Y46.889 E53.42144
G1 X138.201 Y47.392 E53.45824
G1 X138.565 Y48.362 E53.52578
G1 X138.634 Y48.604 E53.54218
G1 X138.791 Y49.302 E53.58882
G1 X138.861 Y49.873 E53.62632
G1 X138.886 Y50.359 E53.65805
G1 X138.9 Y51.254 E53.7164
G1 X138.899 Y158.852 E60.7307
G1 X138.889 Y159.573 E60.77771
G1 X138.867 Y160.035 E60.80786
G1 X138.779 Y160.745 E60.8545
G1 X138.604 Y161.49 E60.90438
G1 X138.388 Y162.172 E60.95102
G1 X138.149 Y162.719 E60.98993
G1 X138.118 Y162.782 E60.99451
G1 X137.684 Y163.531 E61.05094
G1 X137.552 Y163.727 E61.06635
G1 X137.12 Y164.297 E61.11297
G1 X136.736 Y164.712 E61.14983
G1 X136.206 Y165.192 E61.19645
G1 X135.7 Y165.569 E61.23758
G1 X135.096 Y165.953 E61.28424
G1 X134.581 Y166.213 E61.32185
G1 X133.637 Y166.565 E61.38753
G1 X133.409 Y166.63 E61.40298
G1 X132.711 Y166.787 E61.44962
G1 X132.21 Y166.851 E61.48255
G1 X131.566 Y166.889 E61.5246
G1 X130.795 Y166.899 E61.57487
G1 X79.113 Y166.899 E64.94401
G1 X78.419 Y166.889 E64.98926
G1 X77.883 Y166.86 E65.02425
G1 X76.863 Y166.694 E65.09162
G1 X76.576 Y166.623 E65.11089
G1 X75.892 Y166.412 E65.15755
G1 X75.317 Y166.167 E65.1983
G1 X75.247 Y166.133 E65.20337
G1 X74.455 Y165.676 E65.26298
G1 X74.26 Y165.544 E65.27833
G1 X73.691 Y165.11 E65.32498
G1 X73.323 Y164.769 E65.35769
G1 X73.254 Y164.7 E65.36405
G1 X72.586 Y163.916 E65.4312
G1 X72.434 Y163.705 E65.44815
G1 X72.049 Y163.102 E65.49479
G1 X71.818 Y162.651 E65.52782
G1 X71.781 Y162.571 E65.53357
G1 X71.43 Y161.619 E65.59971
G1 X71.361 Y161.374 E65.6163
G1 X71.206 Y160.676 E65.66291
G1 X71.14 Y160.135 E65.69844
G1 X71.114 Y159.635 E65.73108
G1 X71.1 Y158.696 E65.7923
G1 X71.101 Y51.088 E72.80725
G1 X71.111 Y50.42 E72.85081
G1 X71.133 Y49.965 E72.8805
G1 X71.221 Y49.255 E72.92714
G1 X71.388 Y48.533 E72.97545
G1 X71.603 Y47.851 E73.02207
G1 X71.833 Y47.317 E73.05997
G1 X71.866 Y47.249 E73.0649
G1 X72.324 Y46.455 E73.12465
M204 S3000
M205 X10 Y10
G0 F500 X72.788 Y46.769
M204 S1800
M205 X8 Y8
G1 F2400 X72.92 Y46.574 E73.14
G1 X73.335 Y46.032 E73.1845
G1 X73.694 Y45.65 E73.21868
G1 X74.408 Y45.043 E73.27977
G1 X74.616 Y44.893 E73.29649
G1 X75.193 Y44.527 E73.34103
G1 X75.63 Y44.306 E73.37295
G1 X76.516 Y43.974 E73.43463
G1 X76.758 Y43.905 E73.45104
G1 X77.425 Y43.756 E73.49559
G1 X77.924 Y43.697 E73.52835
G1 X78.373 Y43.674 E73.55766
G1 X79.279 Y43.66 E73.61673
G1 X130.796 Y43.66 E76.97511
G1 X131.569 Y43.671 E77.02551
G1 X131.997 Y43.691 E77.05344
G1 X132.675 Y43.777 E77.09799
G1 X133.317 Y43.928 E77.14099
G1 X133.969 Y44.134 E77.18556
G1 X134.439 Y44.337 E77.21894
G1 X134.509 Y44.371 E77.22401
G1 X135.231 Y44.788 E77.27836
G1 X135.426 Y44.92 E77.29371
G1 X135.968 Y45.335 E77.33822
G1 X136.314 Y45.659 E77.36912
G1 X136.953 Y46.402 E77.433
G1 X137.106 Y46.614 E77.45004
G1 X137.472 Y47.191 E77.49459
G1 X137.694 Y47.63 E77.52666
G1 X138.026 Y48.516 E77.58834
G1 X138.095 Y48.758 E77.60474
G1 X138.244 Y49.425 E77.6493
G1 X138.31 Y50.02 E77.68832
G1 X138.326 Y50.368 E77.71103
G1 X138.34 Y51.254 E77.7688
G1 X138.339 Y158.844 E84.78258
G1 X138.329 Y159.565 E84.82958
G1 X138.309 Y159.997 E84.85777
G1 X138.223 Y160.675 E84.90233
G1 X138.062 Y161.351 E84.94763
G1 X137.853 Y162.001 E84.99214
G1 X137.647 Y162.471 E85.02559
G1 X137.616 Y162.534 E85.03017
G1 X137.22 Y163.218 E85.08169
G1 X137.088 Y163.414 E85.0971
G1 X136.674 Y163.958 E85.14166
G1 X136.337 Y164.319 E85.17386
G1 X135.582 Y164.965 E85.23863
G1 X135.373 Y165.115 E85.2554
G1 X134.796 Y165.48 E85.29991
G1 X134.345 Y165.705 E85.33277
G1 X133.483 Y166.026 E85.39273
G1 X133.255 Y166.091 E85.40819
G1 X132.588 Y166.24 E85.45274
G1 X131.989 Y166.308 E85.49204
G1 X131.558 Y166.329 E85.52017
G1 X130.795 Y166.339 E85.56991
G1 X79.121 Y166.339 E88.93853
G1 X78.427 Y166.329 E88.98378
G1 X77.928 Y166.302 E89.01636
G1 X76.998 Y166.15 E89.07779
G1 X76.711 Y166.079 E89.09706
G1 X76.058 Y165.877 E89.14162
G1 X75.561 Y165.663 E89.1769
G1 X75.491 Y165.629 E89.18197
G1 X74.769 Y165.212 E89.23632
G1 X74.574 Y165.08 E89.25167
G1 X74.032 Y164.665 E89.29617
G1 X73.649 Y164.305 E89.33044
G1 X73.04 Y163.589 E89.39172
G1 X72.888 Y163.378 E89.40867
G1 X72.522 Y162.801 E89.45321
G1 X72.289 Y162.336 E89.48712
G1 X71.969 Y161.467 E89.54749
G1 X71.9 Y161.222 E89.56408
G1 X71.753 Y160.555 E89.60861
G1 X71.691 Y159.988 E89.64579
G1 X71.674 Y159.626 E89.66941
G1 X71.66 Y158.696 E89.73005
G1 X71.661 Y51.097 E96.74441
G1 X71.671 Y50.429 E96.78796
G1 X71.691 Y50.003 E96.81576
G1 X71.777 Y49.325 E96.86032
G1 X71.931 Y48.671 E96.90412
G1 X72.138 Y48.02 E96.94865
G1 X72.337 Y47.561 E96.98126
G1 X72.37 Y47.493 E96.98619
G1 X72.788 Y46.769 E97.04069
M204 S3000
M205 X10 Y10
G0 F500 X73.252 Y47.083
M204 S1800
M205 X8 Y8
G1 F2400 X73.384 Y46.888 E97.05604
G1 X73.78 Y46.374 E97.09834
G1 X74.09 Y46.046 E97.12776
G1 X74.736 Y45.497 E97.18303
G1 X74.944 Y45.347 E97.19974
G1 X75.493 Y45.001 E97.24205
G1 X75.869 Y44.813 E97.26945
G1 X76.669 Y44.512 E97.32517
G1 X76.911 Y44.443 E97.34158
G1 X77.546 Y44.304 E97.38395
G1 X78.072 Y44.248 E97.41844
G1 X78.382 Y44.234 E97.43867
G1 X79.279 Y44.22 E97.49715
G1 X130.796 Y44.22 E100.85553
G1 X131.561 Y44.231 E100.90541
G1 X131.959 Y44.25 E100.93139
G1 X132.895 Y44.399 E100.99317
G1 X133.18 Y44.471 E101.01233
G1 X133.799 Y44.668 E101.05468
G1 X134.264 Y44.875 E101.08786
G1 X134.917 Y45.252 E101.13702
G1 X135.112 Y45.384 E101.15237
G1 X135.856 Y45.994 E101.21509
G1 X135.921 Y46.058 E101.22103
G1 X136.498 Y46.73 E101.27877
G1 X136.651 Y46.942 E101.29582
G1 X136.998 Y47.491 E101.33816
G1 X137.187 Y47.869 E101.36571
G1 X137.488 Y48.669 E101.42143
G1 X137.557 Y48.911 E101.43783
G1 X137.696 Y49.546 E101.48021
G1 X137.752 Y50.063 E101.51411
G1 X137.766 Y50.377 E101.5346
G1 X137.78 Y51.254 E101.59178
G1 X137.779 Y158.836 E108.60503
G1 X137.769 Y159.557 E108.65204
G1 X137.75 Y159.959 E108.67827
G1 X137.595 Y160.92 E108.74173
G1 X137.52 Y161.211 E108.76132
G1 X137.319 Y161.829 E108.80369
G1 X137.114 Y162.287 E108.8364
G1 X136.755 Y162.905 E108.88299
G1 X136.623 Y163.101 E108.89839
G1 X136.228 Y163.617 E108.94076
G1 X135.938 Y163.926 E108.96838
G1 X135.256 Y164.51 E109.02691
G1 X135.047 Y164.66 E109.04368
G1 X134.497 Y165.005 E109.08601
G1 X134.109 Y165.197 E109.11423
G1 X133.33 Y165.488 E109.16844
G1 X133.102 Y165.553 E109.1839
G1 X132.467 Y165.692 E109.22627
G1 X131.941 Y165.75 E109.26077
G1 X131.551 Y165.77 E109.28623
G1 X130.795 Y165.779 E109.33551
G1 X79.129 Y165.779 E112.70361
G1 X78.435 Y165.769 E112.74886
G1 X77.973 Y165.744 E112.77902
G1 X77.132 Y165.606 E112.83458
G1 X76.845 Y165.535 E112.85385
G1 X76.225 Y165.341 E112.8962
G1 X75.736 Y165.125 E112.93105
G1 X75.083 Y164.748 E112.98021
G1 X74.888 Y164.616 E112.99556
G1 X74.374 Y164.22 E113.03786
G1 X74.045 Y163.909 E113.06737
G1 X73.495 Y163.261 E113.12278
G1 X73.343 Y163.05 E113.13973
G1 X72.996 Y162.501 E113.18207
G1 X72.798 Y162.1 E113.21122
G1 X72.508 Y161.315 E113.26578
G1 X72.439 Y161.07 E113.28237
G1 X72.301 Y160.435 E113.32473
G1 X72.234 Y159.618 E113.37817
G1 X72.22 Y158.696 E113.43828
G1 X72.221 Y51.105 E120.45213
G1 X72.231 Y50.437 E120.49568
G1 X72.25 Y50.041 E120.52152
G1 X72.401 Y49.096 E120.58391
G1 X72.474 Y48.809 E120.60321
G1 X72.672 Y48.191 E120.64552
G1 X72.874 Y47.738 E120.67785
G1 X73.252 Y47.083 E120.72715
M204 S3000
M205 X10 Y10
G1 F2400 E117.72715
G1 F600 Z0.275
G0 F500 X86.806 Y75.856 Z0.275
M204 S1800
M205 X8 Y8
;TYPE:SUPPORT
G1 F600 Z0.2
G1 F2400 E120.72715
G1 F300 X87.299 Y75.743 E120.76012
G1 X87.568 Y75.735 E120.77767
G1 X88.075 Y75.815 E120.81113
G1 X88.54 Y76.02 E120.84426
G1 X88.941 Y76.337 E120.87758
G1 X89.262 Y76.768 E120.91261
G1 X89.453 Y77.243 E120.94599
G1 X89.52 Y77.75 E120.97933
G1 X89.453 Y78.257 E121.01266
G1 X89.262 Y78.732 E121.04604
G1 X88.941 Y79.163 E121.08107
G1 X88.54 Y79.48 E121.11439
G1 X88.075 Y79.685 E121.14752
G1 X87.568 Y79.765 E121.18098
G1 X87.051 Y79.718 E121.21483
G1 X86.565 Y79.539 E121.24859
G1 X86.147 Y79.249 E121.28175
G1 X85.809 Y78.849 E121.31589
G1 X85.586 Y78.385 E121.34945
G1 X85.486 Y77.874 E121.3834
G1 X85.52 Y77.365 E121.41665
G1 X85.682 Y76.875 E121.4503
G1 X85.968 Y76.437 E121.4844
G1 X86.339 Y76.098 E121.51716
G1 X86.806 Y75.856 E121.55145
M204 S3000
M205 X10 Y10
G0 F500 X87.536 Y76.237
M204 S1800
M205 X8 Y8
G1 F300 X87.36 Y76.241 E121.56292
G1 X86.98 Y76.329 E121.58835
G1 X86.628 Y76.511 E121.61418
