;FLAVOR:Marlin
;TIME:6854
;Filament used: 4.59269m
;Layer height: 0.2
;MINX:74.98
;MINY:41.98
;MINZ:0.2
;MAXX:145.02
;MAXY:168.019
;MAXZ:6.075
;Generated with Cura_SteamEngine 4.11.0
M140 S60
M105
M190 S60
M104 S200
M105
M109 S200
M82 ;absolute extrusion mode
G21 ;metric values
G90 ;absolute positioning
M82 ;set extruder to absolute mode
M107 ;start with the fan off
G28 X0 Y0 ;move X/Y to min endstops
G28 Z0 ;move Z to min endstops
G1 Z15.0 F100 ;move the platform down 15mm
G92 E0 ;zero the extruded length
G1 F200 E3 ;extrude 3mm of feed stock
G92 E0 ;zero the extruded length again
G1 F100
G0 Y20 F100
M117 Printing...
G5
G92 E0
G92 E0
G1 F2400 E-3
;LAYER_COUNT:30
;LAYER:0
M107
M204 S3000
M205 X10 Y10
G1 F600 Z0.275
G0 F500 X76.397 Y45.828 Z0.275
M204 S1800
M205 X8 Y8
;TYPE:SKIRT
G1 F600 Z0.2
G1 F2400 E0
G1 X76.529 Y45.633 E0.01535
G1 X76.996 Y45.014 E0.0659
G1 X77.439 Y44.531 E0.10862
G1 X77.507 Y44.463 E0.11489
G1 X78.082 Y43.943 E0.16543
G1 X78.633 Y43.531 E0.21028
G1 X79.285 Y43.11 E0.26088
G1 X79.83 Y42.826 E0.30094
G1 X79.915 Y42.786 E0.30706
G1 X80.633 Y42.492 E0.35764
G1 X81.297 Y42.289 E0.40291
G1 X82.053 Y42.115 E0.45348
G1 X82.798 Y42.022 E0.50242
G1 X83.346 Y41.994 E0.53819
G1 X84.279 Y41.98 E0.59902
G1 X135.796 Y41.98 E3.95741
G1 X136.593 Y41.991 E4.00937
G1 X137.111 Y42.015 E4.04317
G1 X137.881 Y42.107 E4.09373
G1 X138.444 Y42.227 E4.13125
G1 X138.729 Y42.299 E4.15042
G1 X139.47 Y42.527 E4.20096
G1 X140.173 Y42.826 E4.25076
G1 X140.243 Y42.86 E4.25583
G1 X141.172 Y43.397 E4.32578
G1 X141.367 Y43.529 E4.34113
G1 X141.986 Y43.996 E4.39168
G1 X142.428 Y44.397 E4.43059
G1 X142.493 Y44.461 E4.43653
G1 X143.017 Y45.033 E4.4871
G1 X143.468 Y45.631 E4.53593
G1 X143.889 Y46.283 E4.58652
G1 X144.174 Y46.83 E4.62673
G1 X144.214 Y46.915 E4.63286
G1 X144.508 Y47.633 E4.68344
G1 X144.711 Y48.297 E4.7287
G1 X144.885 Y49.053 E4.77927
G1 X144.977 Y49.788 E4.82756
G1 X145.006 Y50.34 E4.86359
G1 X145.02 Y51.254 E4.92318
G1 X145.019 Y158.867 E11.93846
G1 X145.009 Y159.588 E11.98547
G1 X144.985 Y160.111 E12.0196
G1 X144.893 Y160.881 E12.07015
G1 X144.764 Y161.479 E12.11003
G1 X144.689 Y161.77 E12.12962
G1 X144.457 Y162.51 E12.18018
G1 X144.154 Y163.213 E12.23008
G1 X144.123 Y163.276 E12.23466
G1 X143.613 Y164.157 E12.30102
G1 X143.481 Y164.353 E12.31642
G1 X143.016 Y164.973 E12.36695
G1 X142.601 Y165.43 E12.40719
G1 X142.534 Y165.498 E12.41341
G1 X141.962 Y166.021 E12.46394
G1 X141.562 Y166.329 E12.49685
G1 X141.353 Y166.479 E12.51362
G1 X140.7 Y166.898 E12.5642
G1 X140.139 Y167.189 E12.6054
G1 X140.053 Y167.229 E12.61158
G1 X139.334 Y167.519 E12.66212
G1 X138.716 Y167.707 E12.70423
G1 X137.96 Y167.881 E12.7548
G1 X137.307 Y167.967 E12.79774
G1 X137.135 Y167.982 E12.80899
G1 X136.581 Y168.009 E12.84515
G1 X135.795 Y168.019 E12.8964
G1 X84.097 Y168.019 E16.26658
G1 X83.403 Y168.009 E16.31183
G1 X82.903 Y167.985 E16.34446
G1 X82.792 Y167.976 E16.35172
G1 X82.024 Y167.874 E16.40223
G1 X81.307 Y167.71 E16.45017
G1 X80.565 Y167.485 E16.50072
G1 X79.827 Y167.174 E16.55293
G1 X79.757 Y167.14 E16.558
G1 X78.828 Y166.603 E16.62795
G1 X78.633 Y166.471 E16.6433
G1 X78.014 Y166.004 E16.69385
G1 X77.531 Y165.561 E16.73658
G1 X77.462 Y165.492 E16.74294
G1 X76.942 Y164.917 E16.79348
G1 X76.525 Y164.359 E16.83889
G1 X76.105 Y163.708 E16.88939
G1 X75.802 Y163.121 E16.93246
G1 X75.765 Y163.041 E16.9382
G1 X75.476 Y162.321 E16.98878
G1 X75.283 Y161.678 E17.03254
G1 X75.111 Y160.921 E17.08315
G1 X75.024 Y160.221 E17.12913
G1 X74.994 Y159.652 E17.16628
G1 X74.98 Y158.696 E17.22861
G1 X74.981 Y51.071 E24.24466
G1 X74.991 Y50.403 E24.28822
G1 X75.015 Y49.889 E24.32176
G1 X75.107 Y49.119 E24.37231
G1 X75.23 Y48.544 E24.41065
G1 X75.303 Y48.257 E24.42995
G1 X75.533 Y47.517 E24.48047
G1 X75.826 Y46.828 E24.52928
G1 X75.859 Y46.76 E24.5342
G1 X76.397 Y45.828 E24.60436
M204 S3000
M205 X10 Y10
G0 F500 X76.86 Y46.141
M204 S1800
M205 X8 Y8
G1 F2400 X76.992 Y45.946 E24.61971
G1 X77.443 Y45.352 E24.66833
G1 X77.835 Y44.927 E24.70602
G1 X77.903 Y44.859 E24.71229
G1 X78.753 Y44.135 E24.78508
G1 X78.961 Y43.985 E24.80179
G1 X79.588 Y43.582 E24.85038
G1 X80.068 Y43.332 E24.88566
G1 X80.153 Y43.292 E24.89179
G1 X80.844 Y43.011 E24.94041
G1 X81.451 Y42.828 E24.98174
G1 X82.178 Y42.662 E25.03036
G1 X82.84 Y42.58 E25.07384
G1 X83.355 Y42.554 E25.10746
G1 X84.279 Y42.54 E25.1677
G1 X135.796 Y42.54 E28.52609
G1 X136.585 Y42.551 E28.57753
G1 X137.073 Y42.574 E28.60937
G1 X137.813 Y42.664 E28.65797
G1 X138.307 Y42.77 E28.69091
G1 X138.592 Y42.842 E28.71007
G1 X139.304 Y43.063 E28.75867
G1 X139.928 Y43.329 E28.80289
G1 X139.998 Y43.363 E28.80796
G1 X140.859 Y43.86 E28.87277
G1 X141.054 Y43.992 E28.88812
G1 X141.648 Y44.443 E28.93674
G1 X142.035 Y44.797 E28.97093
G1 X142.1 Y44.861 E28.97688
G1 X142.603 Y45.412 E29.02552
G1 X143.014 Y45.959 E29.07012
G1 X143.417 Y46.586 E29.11871
G1 X143.668 Y47.068 E29.15413
G1 X143.708 Y47.153 E29.16026
G1 X143.989 Y47.844 E29.20889
G1 X144.172 Y48.451 E29.25022
G1 X144.338 Y49.178 E29.29883
G1 X144.419 Y49.83 E29.34166
G1 X144.446 Y50.349 E29.37554
G1 X144.46 Y51.254 E29.43454
G1 X144.459 Y158.86 E36.44936
G1 X144.449 Y159.581 E36.49637
G1 X144.426 Y160.073 E36.52848
G1 X144.336 Y160.813 E36.57707
G1 X144.222 Y161.339 E36.61216
G1 X144.147 Y161.63 E36.63175
G1 X143.922 Y162.341 E36.68037
G1 X143.652 Y162.966 E36.72475
G1 X143.621 Y163.029 E36.72933
G1 X143.149 Y163.844 E36.79072
G1 X143.017 Y164.04 E36.80613
G1 X142.568 Y164.635 E36.85472
G1 X142.202 Y165.037 E36.89016
G1 X142.135 Y165.105 E36.89638
G1 X141.584 Y165.607 E36.94497
G1 X141.026 Y166.024 E36.99039
G1 X140.398 Y166.426 E37.03899
G1 X139.903 Y166.681 E37.07529
G1 X139.817 Y166.721 E37.08148
G1 X138.79 Y167.103 E37.15291
G1 X138.562 Y167.168 E37.16836
G1 X137.835 Y167.334 E37.21698
G1 X137.259 Y167.409 E37.25484
G1 X137.087 Y167.424 E37.2661
G1 X136.573 Y167.449 E37.29965
G1 X135.795 Y167.459 E37.35037
G1 X84.105 Y167.459 E40.72003
G1 X83.411 Y167.449 E40.76528
G1 X82.838 Y167.418 E40.80269
G1 X82.098 Y167.318 E40.85137
G1 X81.442 Y167.166 E40.89526
G1 X80.728 Y166.949 E40.94391
G1 X80.072 Y166.671 E40.99036
G1 X80.002 Y166.637 E40.99543
G1 X79.141 Y166.14 E41.06024
G1 X78.946 Y166.008 E41.07559
G1 X78.352 Y165.557 E41.12421
G1 X77.927 Y165.165 E41.1619
G1 X77.858 Y165.096 E41.16826
G1 X77.359 Y164.542 E41.21687
G1 X76.98 Y164.032 E41.25829
G1 X76.577 Y163.404 E41.30693
G1 X76.31 Y162.886 E41.34492
G1 X76.273 Y162.806 E41.35067
G1 X75.891 Y161.771 E41.42259
G1 X75.822 Y161.526 E41.43918
G1 X75.658 Y160.798 E41.48783
G1 X75.582 Y160.178 E41.52855
G1 X75.554 Y159.644 E41.56341
G1 X75.54 Y158.696 E41.62522
G1 X75.541 Y51.08 E48.64069
G1 X75.551 Y50.412 E48.68424
G1 X75.574 Y49.927 E48.71589
G1 X75.664 Y49.187 E48.76449
G1 X75.773 Y48.682 E48.79817
G1 X75.846 Y48.395 E48.81747
G1 X76.068 Y47.683 E48.86609
G1 X76.329 Y47.072 E48.9094
G1 X76.362 Y47.004 E48.91433
G1 X76.86 Y46.141 E48.97929
M204 S3000
M205 X10 Y10
G0 F500 X77.324 Y46.455
M204 S1800
M205 X8 Y8
G1 F2400 X77.456 Y46.26 E48.99464
G1 X77.89 Y45.691 E49.04129
G1 X78.231 Y45.323 E49.07399
G1 X78.299 Y45.255 E49.08026
G1 X79.081 Y44.589 E49.14722
G1 X79.289 Y44.439 E49.16394
G1 X79.891 Y44.054 E49.21052
G1 X80.392 Y43.799 E49.24717
G1 X81.362 Y43.435 E49.31471
G1 X81.604 Y43.366 E49.33112
G1 X82.302 Y43.209 E49.37776
G1 X82.882 Y43.139 E49.41584
G1 X83.364 Y43.114 E49.4473
G1 X84.279 Y43.1 E49.50696
G1 X135.796 Y43.1 E52.86535
G1 X136.577 Y43.111 E52.91626
G1 X137.035 Y43.133 E52.94616
G1 X137.745 Y43.221 E52.99279
G1 X138.455 Y43.385 E53.0403
G1 X139.137 Y43.599 E53.0869
G1 X139.683 Y43.833 E53.12562
G1 X139.753 Y43.867 E53.13069
G1 X140.545 Y44.324 E53.1903
G1 X140.74 Y44.456 E53.20565
G1 X141.309 Y44.89 E53.2523
G1 X141.707 Y45.26 E53.28773
G1 X142.188 Y45.789 E53.33434
G1 X142.56 Y46.287 E53.37486
G1 X142.945 Y46.889 E53.42144
G1 X143.201 Y47.392 E53.45824
G1 X143.565 Y48.362 E53.52578
G1 X143.634 Y48.604 E53.54218
G1 X143.791 Y49.302 E53.58882
G1 X143.861 Y49.873 E53.62632
G1 X143.886 Y50.359 E53.65805
G1 X143.9 Y51.254 E53.7164
G1 X143.899 Y158.852 E60.7307
G1 X143.889 Y159.573 E60.77771
G1 X143.867 Y160.035 E60.80786
G1 X143.779 Y160.745 E60.8545
G1 X143.604 Y161.49 E60.90438
G1 X143.388 Y162.172 E60.95102
G1 X143.149 Y162.719 E60.98993
G1 X143.118 Y162.782 E60.99451
G1 X142.684 Y163.531 E61.05094
G1 X142.552 Y163.727 E61.06635
G1 X142.12 Y164.297 E61.11297
G1 X141.736 Y164.712 E61.14983
G1 X141.206 Y165.192 E61.19645
G1 X140.7 Y165.569 E61.23758
G1 X140.096 Y165.953 E61.28424
G1 X139.581 Y166.213 E61.32185
G1 X138.637 Y166.565 E61.38753
G1 X138.409 Y166.63 E61.40298
G1 X137.711 Y166.787 E61.44962
G1 X137.21 Y166.851 E61.48255
G1 X136.566 Y166.889 E61.5246
G1 X135.795 Y166.899 E61.57487
G1 X84.113 Y166.899 E64.94401
G1 X83.419 Y166.889 E64.98926
G1 X82.883 Y166.86 E65.02425
G1 X81.863 Y166.694 E65.09162
G1 X81.576 Y166.623 E65.11089
G1 X80.892 Y166.412 E65.15755
G1 X80.317 Y166.167 E65.1983
G1 X80.247 Y166.133 E65.20337
G1 X79.455 Y165.676 E65.26298
G1 X79.26 Y165.544 E65.27833
G1 X78.691 Y165.11 E65.32498
G1 X78.323 Y164.769 E65.35769
G1 X78.254 Y164.7 E65.36405
G1 X77.586 Y163.916 E65.4312
G1 X77.434 Y163.705 E65.44815
G1 X77.049 Y163.102 E65.49479
G1 X76.818 Y162.651 E65.52782
G1 X76.781 Y162.571 E65.53357
G1 X76.43 Y161.619 E65.59971
G1 X76.361 Y161.374 E65.6163
G1 X76.206 Y160.676 E65.66291
G1 X76.14 Y160.135 E65.69844
G1 X76.114 Y159.635 E65.73108
G1 X76.1 Y158.696 E65.7923
G1 X76.101 Y51.088 E72.80725
G1 X76.111 Y50.42 E72.85081
G1 X76.133 Y49.965 E72.8805
G1 X76.221 Y49.255 E72.92714
G1 X76.388 Y48.533 E72.97545
G1 X76.603 Y47.851 E73.02207
G1 X76.833 Y47.317 E73.05997
G1 X76.866 Y47.249 E73.0649
G1 X77.324 Y46.455 E73.12465
M204 S3000
M205 X10 Y10
G0 F500 X77.788 Y46.769
M204 S1800
M205 X8 Y8
G1 F2400 X77.92 Y46.574 E73.14
G1 X78.335 Y46.032 E73.1845
G1 X78.694 Y45.65 E73.21868
G1 X79.408 Y45.043 E73.27977
G1 X79.616 Y44.893 E73.29649
G1 X80.193 Y44.527 E73.34103
G1 X80.63 Y44.306 E73.37295
G1 X81.516 Y43.974 E73.43463
G1 X81.758 Y43.905 E73.45104
G1 X82.425 Y43.756 E73.49559
G1 X82.924 Y43.697 E73.52835
G1 X83.373 Y43.674 E73.55766
G1 X84.279 Y43.66 E73.61673
G1 X135.796 Y43.66 E76.97511
G1 X136.569 Y43.671 E77.02551
G1 X136.997 Y43.691 E77.05344
G1 X137.675 Y43.777 E77.09799
G1 X138.317 Y43.928 E77.14099
G1 X138.969 Y44.134 E77.18556
G1 X139.439 Y44.337 E77.21894
G1 X139.509 Y44.371 E77.22401
G1 X140.231 Y44.788 E77.27836
G1 X140.426 Y44.92 E77.29371
G1 X140.968 Y45.335 E77.33822
G1 X141.314 Y45.659 E77.36912
G1 X141.953 Y46.402 E77.433
G1 X142.106 Y46.614 E77.45004
G1 X142.472 Y47.191 E77.49459
G1 X142.694 Y47.63 E77.52666
G1 X143.026 Y48.516 E77.58834
G1 X143.095 Y48.758 E77.60474
G1 X143.244 Y49.425 E77.6493
G1 X143.31 Y50.02 E77.68832
G1 X143.326 Y50.368 E77.71103
G1 X143.34 Y51.254 E77.7688
G1 X143.339 Y158.844 E84.78258
G1 X143.329 Y159.565 E84.82958
G1 X143.309 Y159.997 E84.85777
G1 X143.223 Y160.675 E84.90233
G1 X143.062 Y161.351 E84.94763
G1 X142.853 Y162.001 E84.99214
G1 X142.647 Y162.471 E85.02559
G1 X142.616 Y162.534 E85.03017
G1 X142.22 Y163.218 E85.08169
G1 X142.088 Y163.414 E85.0971
G1 X141.674 Y163.958 E85.14166
G1 X141.337 Y164.319 E85.17386
G1 X140.582 Y164.965 E85.23863
G1 X140.373 Y165.115 E85.2554
G1 X139.796 Y165.48 E85.29991
G1 X139.345 Y165.705 E85.33277
G1 X138.483 Y166.026 E85.39273
G1 X138.255 Y166.091 E85.40819
G1 X137.588 Y166.24 E85.45274
G1 X136.989 Y166.308 E85.49204
G1 X136.558 Y166.329 E85.52017
G1 X135.795 Y166.339 E85.56991
G1 X84.121 Y166.339 E88.93853
G1 X83.427 Y166.329 E88.98378
G1 X82.928 Y166.302 E89.01636
G1 X81.998 Y166.15 E89.07779
G1 X81.711 Y166.079 E89.09706
G1 X81.058 Y165.877 E89.14162
G1 X80.561 Y165.663 E89.1769
G1 X80.491 Y165.629 E89.18197
G1 X79.769 Y165.212 E89.23632
G1 X79.574 Y165.08 E89.25167
G1 X79.032 Y164.665 E89.29617
G1 X78.649 Y164.305 E89.33044
G1 X78.04 Y163.589 E89.39172
G1 X77.888 Y163.378 E89.40867
G1 X77.522 Y162.801 E89.45321
G1 X77.289 Y162.336 E89.48712
G1 X76.969 Y161.467 E89.54749
G1 X76.9 Y161.222 E89.56408
G1 X76.753 Y160.555 E89.60861
G1 X76.691 Y159.988 E89.64579
G1 X76.674 Y159.626 E89.66941
G1 X76.66 Y158.696 E89.73005
G1 X76.661 Y51.097 E96.74441
G1 X76.671 Y50.429 E96.78796
G1 X76.691 Y50.003 E96.81576
G1 X76.777 Y49.325 E96.86032
G1 X76.931 Y48.671 E96.90412
G1 X77.138 Y48.02 E96.94865
G1 X77.337 Y47.561 E96.98126
G1 X77.37 Y47.493 E96.98619
G1 X77.788 Y46.769 E97.04069
M204 S3000
M205 X10 Y10
G0 F500 X78.252 Y47.083
M204 S1800
M205 X8 Y8
G1 F2400 X78.384 Y46.888 E97.05604
G1 X78.78 Y46.374 E97.09834
G1 X79.09 Y46.046 E97.12776
G1 X79.736 Y45.497 E97.18303
G1 X79.944 Y45.347 E97.19974
G1 X80.493 Y45.001 E97.24205
G1 X80.869 Y44.813 E97.26945
G1 X81.669 Y44.512 E97.32517
G1 X81.911 Y44.443 E97.34158
G1 X82.546 Y44.304 E97.38395
G1 X83.072 Y44.248 E97.41844
G1 X83.382 Y44.234 E97.43867
G1 X84.279 Y44.22 E97.49715
G1 X135.796 Y44.22 E100.85553
G1 X136.561 Y44.231 E100.90541
G1 X136.959 Y44.25 E100.93139
G1 X137.895 Y44.399 E100.99317
G1 X138.18 Y44.471 E101.01233
G1 X138.799 Y44.668 E101.05468
G1 X139.264 Y44.875 E101.08786
G1 X139.917 Y45.252 E101.13702
G1 X140.112 Y45.384 E101.15237
G1 X140.856 Y45.994 E101.21509
G1 X140.921 Y46.058 E101.22103
G1 X141.498 Y46.73 E101.27877
G1 X141.651 Y46.942 E101.29582
G1 X141.998 Y47.491 E101.33816
G1 X142.187 Y47.869 E101.36571
G1 X142.488 Y48.669 E101.42143
G1 X142.557 Y48.911 E101.43783
G1 X142.696 Y49.546 E101.48021
G1 X142.752 Y50.063 E101.51411
G1 X142.766 Y50.377 E101.5346
G1 X142.78 Y51.254 E101.59178
G1 X142.779 Y158.836 E108.60503
G1 X142.769 Y159.557 E108.65204
G1 X142.75 Y159.959 E108.67827
G1 X142.595 Y160.92 E108.74173
G1 X142.52 Y161.211 E108.76132
G1 X142.319 Y161.829 E108.80369
G1 X142.114 Y162.287 E108.8364
G1 X141.755 Y162.905 E108.88299
G1 X141.623 Y163.101 E108.89839
G1 X141.228 Y163.617 E108.94076
G1 X140.938 Y163.926 E108.96838
G1 X140.256 Y164.51 E109.02691
G1 X140.047 Y164.66 E109.04368
G1 X139.497 Y165.005 E109.08601
G1 X139.109 Y165.197 E109.11423
G1 X138.33 Y165.488 E109.16844
G1 X138.102 Y165.553 E109.1839
G1 X137.467 Y165.692 E109.22627
G1 X136.941 Y165.75 E109.26077
G1 X136.551 Y165.77 E109.28623
G1 X135.795 Y165.779 E109.33551
G1 X84.129 Y165.779 E112.70361
G1 X83.435 Y165.769 E112.74886
G1 X82.973 Y165.744 E112.77902
G1 X82.132 Y165.606 E112.83458
G1 X81.845 Y165.535 E112.85385
G1 X81.225 Y165.341 E112.8962
G1 X80.736 Y165.125 E112.93105
G1 X80.083 Y164.748 E112.98021
G1 X79.888 Y164.616 E112.99556
G1 X79.374 Y164.22 E113.03786
G1 X79.045 Y163.909 E113.06737
G1 X78.495 Y163.261 E113.12278
G1 X78.343 Y163.05 E113.13973
G1 X77.996 Y162.501 E113.18207
G1 X77.798 Y162.1 E113.21122
G1 X77.508 Y161.315 E113.26578
G1 X77.439 Y161.07 E113.28237
G1 X77.301 Y160.435 E113.32473
G1 X77.234 Y159.618 E113.37817
G1 X77.22 Y158.696 E113.43828
G1 X77.221 Y51.105 E120.45213
G1 X77.231 Y50.437 E120.49568
G1 X77.25 Y50.041 E120.52152
G1 X77.401 Y49.096 E120.58391
G1 X77.474 Y48.809 E120.60321
G1 X77.672 Y48.191 E120.64552
G1 X77.874 Y47.738 E120.67785
G1 X78.252 Y47.083 E120.72715
M204 S3000
M205 X10 Y10
G1 F2400 E117.72715
G1 F600 Z0.275
;MESH:MainBoard_cover.stl
G0 F500 X136.493 Y160.219 Z0.275
M204 S1800
M205 X8 Y8
;TYPE:WALL-OUTER
G1 F600 Z0.2
G1 F2400 E120.72715
G1 F300 X83.509 Y160.22 E124.18117
G1 X83.256 Y160.176 E124.19791
G1 X83.034 Y160.047 E124.21465
G1 X82.878 Y159.861 E124.23048
G1 X82.792 Y159.622 E124.24703
G1 X82.78 Y159.487 E124.25587
G1 X82.78 Y50.509 E131.36013
G1 X82.824 Y50.256 E131.37687
G1 X82.953 Y50.034 E131.39361
G1 X83.139 Y49.878 E131.40943
G1 X83.378 Y49.792 E131.42599
G1 X83.513 Y49.78 E131.43483
G1 X136.491 Y49.78 E134.88846
G1 X136.744 Y49.824 E134.9052
G1 X136.966 Y49.953 E134.92194
G1 X137.122 Y50.139 E134.93776
G1 X137.208 Y50.378 E134.95432
G1 X137.22 Y50.513 E134.96315
G1 X137.22 Y159.491 E142.06742
G1 X137.176 Y159.744 E142.08416
G1 X137.047 Y159.966 E142.10089
G1 X136.861 Y160.122 E142.11672
G1 X136.622 Y160.208 E142.13328
G1 X136.493 Y160.219 E142.14172
M204 S3000
M205 X10 Y10
G0 F500 X136.293 Y160.219
G0 X136.294 Y159.603
G0 X85.263 Y159.612
G0 X85.007 Y159.47
M204 S1800
M205 X8 Y8
