;FLAVOR:Marlin
;TIME:1235
;Filament used: 0.971798m
;Layer height: 0.2
;MINX:86.48
;MINY:76.48
;MINZ:0.2
;MAXX:123.52
;MAXY:133.52
;MAXZ:6.6
;Generated with Cura_SteamEngine 4.11.0
M140 S60
M105
M190 S60
M104 S200
M105
M109 S200
M82 ;absolute extrusion mode
G21 ;metric values
G90 ;absolute positioning
M82 ;set extruder to absolute mode
M107 ;start with the fan off
G28 X0 Y0 ;move X/Y to min endstops
G28 Z0 ;move Z to min endstops
G1 Z15.0 F100 ;move the platform down 15mm
G92 E0 ;zero the extruded length
G1 F200 E3 ;extrude 3mm of feed stock
G92 E0 ;zero the extruded length again
G1 F100
G0 Y20 F100
M117 Printing...
G5
G92 E0
G92 E0
G1 F2400 E-3
;LAYER_COUNT:33
;LAYER:0
M107
M204 S3000
M205 X10 Y10
G1 F600 Z0.275
G0 F500 X88.433 Y78.963 Z0.275
M204 S1800
M205 X8 Y8
;TYPE:SKIRT
G1 F600 Z0.2
G1 F2400 E0
G1 X88.983 Y78.416 E0.05057
G1 X89.585 Y77.928 E0.10109
G1 X90.235 Y77.505 E0.15164
G1 X90.925 Y77.15 E0.20223
G1 X91.648 Y76.869 E0.25279
G1 X92.395 Y76.664 E0.30329
G1 X93.16 Y76.537 E0.35384
G1 X93.798 Y76.492 E0.39554
G1 X94.33 Y76.48 E0.43023
G1 X115.293 Y76.48 E1.7968
G1 X116.099 Y76.491 E1.84935
G1 X116.872 Y76.542 E1.89985
G1 X117.637 Y76.672 E1.95044
G1 X118.384 Y76.881 E2.00101
G1 X119.105 Y77.165 E2.05152
G1 X119.793 Y77.522 E2.10205
G1 X120.441 Y77.948 E2.15261
G1 X121.042 Y78.439 E2.2032
G1 X121.588 Y78.988 E2.25367
G1 X122.076 Y79.591 E2.30424
G1 X122.498 Y80.241 E2.35476
G1 X122.852 Y80.931 E2.40532
G1 X123.132 Y81.654 E2.45586
G1 X123.337 Y82.402 E2.50642
G1 X123.464 Y83.167 E2.55697
G1 X123.508 Y83.799 E2.59827
G1 X123.52 Y84.33 E2.6329
G1 X123.519 Y125.357 E5.30744
G1 X123.51 Y126.084 E5.35484
G1 X123.461 Y126.858 E5.4054
G1 X123.332 Y127.622 E5.45591
G1 X123.125 Y128.37 E5.5065
G1 X122.842 Y129.092 E5.55706
G1 X122.486 Y129.781 E5.60761
G1 X122.062 Y130.429 E5.6581
G1 X121.572 Y131.031 E5.7087
G1 X121.024 Y131.579 E5.75922
G1 X120.422 Y132.067 E5.80974
G1 X119.772 Y132.491 E5.86033
G1 X119.083 Y132.846 E5.91086
G1 X118.361 Y133.128 E5.96139
G1 X117.613 Y133.334 E6.01196
G1 X116.848 Y133.462 E6.06253
G1 X116.202 Y133.508 E6.10475
G1 X115.67 Y133.52 E6.13944
G1 X94.61 Y133.519 E7.51233
G1 X93.912 Y133.51 E7.55784
G1 X93.138 Y133.46 E7.6084
G1 X92.374 Y133.331 E7.65891
G1 X91.627 Y133.124 E7.70944
G1 X90.905 Y132.84 E7.76002
G1 X90.216 Y132.484 E7.81058
G1 X89.568 Y132.059 E7.8611
G1 X88.966 Y131.57 E7.91166
G1 X88.419 Y131.021 E7.96218
G1 X87.931 Y130.418 E8.01275
G1 X87.507 Y129.769 E8.06329
G1 X87.152 Y129.079 E8.11387
G1 X86.871 Y128.357 E8.16438
G1 X86.665 Y127.609 E8.21495
G1 X86.538 Y126.845 E8.26544
G1 X86.492 Y126.194 E8.30799
G1 X86.48 Y125.658 E8.34294
G1 X86.481 Y84.572 E11.02133
G1 X86.49 Y83.907 E11.06468
G1 X86.54 Y83.134 E11.11518
G1 X86.67 Y82.369 E11.16577
G1 X86.878 Y81.622 E11.21632
G1 X87.162 Y80.9 E11.26689
G1 X87.518 Y80.212 E11.31739
G1 X87.944 Y79.564 E11.36795
G1 X88.433 Y78.963 E11.41846
M204 S3000
M205 X10 Y10
G0 F500 X88.984 Y79.193
M204 S1800
M205 X8 Y8
G1 F2400 X89.528 Y78.683 E11.46707
G1 X90.124 Y78.234 E11.51571
G1 X90.764 Y77.852 E11.5643
G1 X91.442 Y77.54 E11.61295
G1 X92.149 Y77.302 E11.66158
G1 X92.877 Y77.142 E11.71017
G1 X93.814 Y77.052 E11.77154
G1 X94.33 Y77.04 E11.80519
G1 X115.293 Y77.04 E13.17176
G1 X116.091 Y77.051 E13.22379
G1 X116.835 Y77.101 E13.2724
G1 X117.569 Y77.231 E13.32099
G1 X118.286 Y77.439 E13.36966
G1 X118.976 Y77.723 E13.4183
G1 X119.632 Y78.078 E13.46693
G1 X120.245 Y78.502 E13.51552
G1 X120.811 Y78.989 E13.56419
G1 X121.32 Y79.533 E13.61276
G1 X121.769 Y80.129 E13.6614
G1 X122.151 Y80.77 E13.71005
G1 X122.462 Y81.448 E13.75867
G1 X122.699 Y82.155 E13.80728
G1 X122.859 Y82.884 E13.85594
G1 X122.948 Y83.814 E13.91684
G1 X122.96 Y84.33 E13.95049
G1 X122.959 Y125.35 E16.62458
G1 X122.95 Y126.077 E16.67197
G1 X122.901 Y126.821 E16.72058
G1 X122.773 Y127.556 E16.76922
G1 X122.566 Y128.273 E16.81787
G1 X122.284 Y128.964 E16.86652
G1 X121.93 Y129.62 E16.91511
G1 X121.508 Y130.235 E16.96374
G1 X121.022 Y130.801 E17.01237
G1 X120.478 Y131.312 E17.06102
G1 X119.883 Y131.761 E17.10962
G1 X119.243 Y132.145 E17.15827
G1 X118.566 Y132.457 E17.20687
G1 X117.859 Y132.696 E17.25552
G1 X117.131 Y132.857 E17.30412
G1 X116.186 Y132.948 E17.36601
G1 X115.67 Y132.96 E17.39966
G1 X94.617 Y132.959 E18.7721
G1 X93.919 Y132.95 E18.81761
G1 X93.175 Y132.901 E18.86621
G1 X92.44 Y132.772 E18.91486
G1 X91.724 Y132.565 E18.96345
G1 X91.033 Y132.283 E19.0121
G1 X90.377 Y131.928 E19.06073
G1 X89.762 Y131.505 E19.10939
G1 X89.197 Y131.019 E19.15797
G1 X88.686 Y130.475 E19.20663
G1 X88.237 Y129.88 E19.25522
G1 X87.854 Y129.24 E19.30384
G1 X87.541 Y128.563 E19.35246
G1 X87.303 Y127.856 E19.40109
G1 X87.142 Y127.127 E19.44976
G1 X87.052 Y126.179 E19.51184
G1 X87.04 Y125.658 E19.54581
G1 X87.041 Y84.58 E22.22368
G1 X87.05 Y83.915 E22.26704
G1 X87.1 Y83.171 E22.31565
G1 X87.229 Y82.436 E22.36429
G1 X87.436 Y81.719 E22.41294
G1 X87.719 Y81.029 E22.46156
G1 X88.074 Y80.373 E22.51019
G1 X88.497 Y79.759 E22.55879
G1 X88.984 Y79.193 E22.60747
M204 S3000
M205 X10 Y10
G0 F500 X89.05 Y79.963
M204 S1800
M205 X8 Y8
G1 F2400 X89.533 Y79.435 E22.65412
G1 X90.071 Y78.964 E22.70073
G1 X90.659 Y78.556 E22.74739
G1 X91.288 Y78.216 E22.794
G1 X91.952 Y77.949 E22.84065
G1 X92.641 Y77.757 E22.88728
G1 X93.347 Y77.643 E22.9339
G1 X94.151 Y77.603 E22.98638
G1 X94.33 Y77.6 E22.99805
G1 X115.293 Y77.6 E24.36462
G1 X116.083 Y77.611 E24.41613
G1 X116.796 Y77.661 E24.46272
G1 X117.5 Y77.79 E24.50938
G1 X118.184 Y77.998 E24.55599
G1 X118.841 Y78.28 E24.60259
G1 X119.463 Y78.634 E24.64925
G1 X120.041 Y79.055 E24.69586
G1 X120.569 Y79.538 E24.74251
G1 X121.039 Y80.076 E24.78908
G1 X121.447 Y80.664 E24.83574
G1 X121.786 Y81.294 E24.88238
G1 X122.053 Y81.957 E24.92897
G1 X122.244 Y82.647 E24.97564
G1 X122.357 Y83.353 E25.02225
G1 X122.397 Y84.15 E25.07428
G1 X122.4 Y84.33 E25.08601
G1 X122.4 Y125.343 E27.75964
G1 X122.391 Y126.07 E27.80704
G1 X122.342 Y126.784 E27.8537
G1 X122.214 Y127.488 E27.90034
G1 X122.008 Y128.173 E27.94697
G1 X121.727 Y128.83 E27.99356
G1 X121.374 Y129.453 E28.04024
G1 X120.954 Y130.032 E28.08686
G1 X120.472 Y130.56 E28.13347
G1 X119.935 Y131.032 E28.18008
G1 X119.347 Y131.44 E28.22673
G1 X118.718 Y131.781 E28.27338
G1 X118.055 Y132.049 E28.31999
G1 X117.366 Y132.241 E28.36662
G1 X116.66 Y132.356 E28.41325
G1 X115.849 Y132.397 E28.46619
G1 X115.67 Y132.4 E28.47786
G1 X94.624 Y132.399 E29.84984
G1 X93.926 Y132.39 E29.89535
G1 X93.213 Y132.341 E29.94194
G1 X92.509 Y132.213 E29.98859
G1 X91.824 Y132.007 E30.03522
G1 X91.167 Y131.725 E30.08183
G1 X90.545 Y131.372 E30.12845
G1 X89.966 Y130.952 E30.17508
G1 X89.437 Y130.47 E30.22173
G1 X88.966 Y129.932 E30.26835
G1 X88.558 Y129.345 E30.31495
G1 X88.218 Y128.715 E30.36162
G1 X87.95 Y128.052 E30.40824
G1 X87.758 Y127.363 E30.45486
G1 X87.644 Y126.657 E30.50148
G1 X87.602 Y125.831 E30.5554
G1 X87.6 Y125.658 E30.56668
G1 X87.601 Y84.587 E33.24409
G1 X87.61 Y83.922 E33.28745
G1 X87.659 Y83.209 E33.33404
G1 X87.788 Y82.505 E33.38069
G1 X87.995 Y81.821 E33.42728
G1 X88.277 Y81.163 E33.47395
G1 X88.63 Y80.541 E33.52057
G1 X89.05 Y79.963 E33.56715
M204 S3000
M205 X10 Y10
G0 F500 X89.603 Y80.176
M204 S1800
M205 X8 Y8
G1 F2400 X90.08 Y79.688 E33.61163
G1 X90.612 Y79.259 E33.65619
G1 X91.19 Y78.894 E33.70075
G1 X91.807 Y78.6 E33.74531
G1 X92.453 Y78.38 E33.78979
G1 X93.121 Y78.237 E33.83433
G1 X93.845 Y78.171 E33.88172
G1 X94.33 Y78.16 E33.91335
G1 X115.293 Y78.16 E35.27992
G1 X116.075 Y78.171 E35.3309
G1 X116.756 Y78.22 E35.37541
G1 X117.427 Y78.349 E35.41996
G1 X118.078 Y78.556 E35.46449
G1 X118.701 Y78.837 E35.50904
G1 X119.287 Y79.189 E35.55361
G1 X119.827 Y79.607 E35.59812
G1 X120.315 Y80.085 E35.64265
G1 X120.744 Y80.617 E35.68721
G1 X121.108 Y81.195 E35.73173
G1 X121.402 Y81.812 E35.77629
G1 X121.621 Y82.459 E35.82082
G1 X121.764 Y83.127 E35.86535
G1 X121.829 Y83.846 E35.91241
G1 X121.84 Y84.33 E35.94397
G1 X121.84 Y125.336 E38.61715
G1 X121.831 Y126.063 E38.66455
G1 X121.782 Y126.745 E38.70912
G1 X121.654 Y127.416 E38.75365
G1 X121.449 Y128.068 E38.79821
G1 X121.169 Y128.691 E38.84273
G1 X120.819 Y129.277 E38.88723
G1 X120.402 Y129.819 E38.93181
G1 X119.925 Y130.308 E38.97634
G1 X119.394 Y130.737 E39.02084
G1 X118.816 Y131.102 E39.06541
G1 X118.2 Y131.397 E39.10993
G1 X117.553 Y131.618 E39.1545
G1 X116.885 Y131.762 E39.19905
G1 X116.155 Y131.829 E39.24684
G1 X115.67 Y131.84 E39.27846
G1 X94.632 Y131.84 E40.64993
G1 X93.934 Y131.831 E40.69543
G1 X93.252 Y131.782 E40.74001
G1 X92.581 Y131.654 E40.78454
G1 X91.93 Y131.448 E40.82905
G1 X91.306 Y131.168 E40.87364
G1 X90.72 Y130.817 E40.91817
G1 X90.179 Y130.4 E40.9627
G1 X89.69 Y129.922 E41.00727
G1 X89.261 Y129.391 E41.05178
G1 X88.896 Y128.813 E41.09634
G1 X88.602 Y128.197 E41.14084
G1 X88.381 Y127.55 E41.18541
G1 X88.237 Y126.882 E41.22995
G1 X88.171 Y126.149 E41.27793
G1 X88.16 Y125.658 E41.30995
G1 X88.161 Y84.595 E43.98684
G1 X88.17 Y83.93 E44.03019
G1 X88.219 Y83.249 E44.0747
G1 X88.347 Y82.577 E44.1193
G1 X88.553 Y81.926 E44.16381
G1 X88.834 Y81.303 E44.20836
G1 X89.185 Y80.717 E44.25289
G1 X89.603 Y80.176 E44.29746
M204 S3000
M205 X10 Y10
G0 F500 X90.154 Y80.401
M204 S1800
M205 X8 Y8
G1 F2400 X90.626 Y79.955 E44.3398
G1 X91.149 Y79.571 E44.38209
G1 X91.716 Y79.253 E44.42447
G1 X92.317 Y79.007 E44.46681
G1 X92.944 Y78.837 E44.50916
G1 X93.861 Y78.731 E44.56933
G1 X94.33 Y78.72 E44.59992
G1 X115.293 Y78.72 E45.96649
G1 X116.067 Y78.731 E46.01695
G1 X116.714 Y78.78 E46.05925
G1 X117.351 Y78.908 E46.10161
G1 X117.967 Y79.114 E46.14395
G1 X118.554 Y79.394 E46.18635
G1 X119.101 Y79.743 E46.22865
G1 X119.602 Y80.157 E46.27101
G1 X120.047 Y80.63 E46.31335
G1 X120.432 Y81.154 E46.35574
G1 X120.749 Y81.721 E46.39809
G1 X120.994 Y82.322 E46.4404
G1 X121.163 Y82.949 E46.48273
G1 X121.269 Y83.862 E46.54265
G1 X121.28 Y84.33 E46.57316
G1 X121.28 Y125.329 E49.24588
G1 X121.271 Y126.056 E49.29328
G1 X121.223 Y126.704 E49.33564
G1 X121.095 Y127.341 E49.37799
G1 X120.891 Y127.958 E49.42036
G1 X120.612 Y128.545 E49.46273
G1 X120.264 Y129.093 E49.50505
G1 X119.851 Y129.594 E49.54737
G1 X119.379 Y130.041 E49.58975
G1 X118.856 Y130.426 E49.63209
G1 X118.29 Y130.744 E49.67441
G1 X117.688 Y130.991 E49.71683
G1 X117.062 Y131.161 E49.75911
G1 X116.139 Y131.269 E49.8197
G1 X115.67 Y131.28 E49.85028
G1 X94.639 Y131.28 E51.22129
G1 X93.941 Y131.271 E51.26679
G1 X93.293 Y131.222 E51.30916
G1 X92.656 Y131.095 E51.3515
G1 X92.04 Y130.89 E51.39382
G1 X91.453 Y130.611 E51.43619
G1 X90.905 Y130.262 E51.47854
G1 X90.404 Y129.849 E51.52087
G1 X89.957 Y129.377 E51.56325
G1 X89.572 Y128.854 E51.60558
G1 X89.254 Y128.287 E51.64796
G1 X89.008 Y127.686 E51.6903
G1 X88.838 Y127.059 E51.73265
G1 X88.731 Y126.134 E51.79335
G1 X88.72 Y125.658 E51.82439
G1 X88.72 Y84.603 E54.50076
G1 X88.729 Y83.938 E54.54411
G1 X88.778 Y83.29 E54.58648
G1 X88.906 Y82.653 E54.62883
G1 X89.111 Y82.036 E54.67122
G1 X89.391 Y81.45 E54.71356
G1 X89.74 Y80.902 E54.75591
G1 X90.154 Y80.401 E54.79828
M204 S3000
M205 X10 Y10
G1 F2400 E51.79828
;MESH:BottomCover.stl
G0 F500 X93.335 Y84.854
G0 X94.854 Y84.854
G0 X114.663 Y121.195
G0 X115.09 Y125.09
G1 F2400 E54.79828
G0 F500 X115.72 Y125.72
M204 S1800
M205 X8 Y8
;TYPE:WALL-OUTER
G1 F300 X94.28 Y125.72 E56.19595
G1 X94.28 Y84.28 E58.89742
G1 X115.72 Y84.28 E60.29509
G1 X115.72 Y125.72 E62.99656
M204 S3000
M205 X10 Y10
G0 F500 X115.52 Y125.72
G0 X115.104 Y125.104
G0 X115.06 Y125.104
G0 X97.552 Y124.875
G0 X97.188 Y124.2
M204 S1800
M205 X8 Y8
G1 F300 X97.599 Y124.275 E63.02379
G1 X98.009 Y124.265 E63.05053
G1 X98.423 Y124.165 E63.07829
G1 X98.801 Y123.987 E63.10553
G1 X99.135 Y123.735 E63.1328
G1 X99.408 Y123.421 E63.15993
G1 X99.613 Y123.057 E63.18716
G1 X99.739 Y122.657 E63.2145
G1 X99.78 Y122.25 E63.24117
G1 X99.737 Y121.834 E63.26843
G1 X99.611 Y121.437 E63.29558
G1 X99.404 Y121.073 E63.32288
G1 X99.129 Y120.76 E63.35004
G1 X98.794 Y120.51 E63.37729
G1 X98.416 Y120.332 E63.40453
G1 X98.01 Y120.236 E63.43173
G1 X97.383 Y120.252 E63.47261
G1 X96.983 Y120.37 E63.4998
G1 X96.615 Y120.566 E63.52698
G1 X96.294 Y120.836 E63.55432
G1 X96.035 Y121.164 E63.58157
G1 X95.849 Y121.537 E63.60874
G1 X95.744 Y121.941 E63.63595
G1 X95.722 Y122.358 E63.66317
G1 X95.788 Y122.772 E63.6905
G1 X95.937 Y123.161 E63.71766
G1 X96.162 Y123.514 E63.74495
G1 X96.453 Y123.813 E63.77215
G1 X96.801 Y124.045 E63.79941
G1 X97.188 Y124.2 E63.82659
M204 S3000
M205 X10 Y10
G0 F500 X97.385 Y124.235
G0 X97.032 Y124.741
M204 S1800
M205 X8 Y8
;TYPE:WALL-INNER
G1 F300 X97.555 Y124.836 E63.86124
G1 X98.082 Y124.823 E63.89561
G1 X98.61 Y124.696 E63.93101
G1 X98.802 Y124.606 E63.94483
G1 X99.092 Y124.469 E63.96574
G1 X99.519 Y124.147 E64.0006
G1 X99.868 Y123.745 E64.03531
G1 X100.13 Y123.281 E64.07005
G1 X100.29 Y122.77 E64.10495
G1 X100.343 Y122.249 E64.13909
G1 X100.288 Y121.719 E64.17383
G1 X100.127 Y121.211 E64.20857
G1 X99.862 Y120.746 E64.24346
G1 X99.511 Y120.346 E64.27815
G1 X99.084 Y120.027 E64.3129
G1 X98.602 Y119.8 E64.34763
G1 X98.068 Y119.674 E64.3834
G1 X97.295 Y119.694 E64.4338
G1 X96.77 Y119.849 E64.46949
G1 X96.3 Y120.099 E64.50419
G1 X95.89 Y120.444 E64.53912
G1 X95.56 Y120.862 E64.57384
G1 X95.394 Y121.194 E64.59804
G1 X95.322 Y121.339 E64.60859
G1 X95.188 Y121.855 E64.64335
G1 X95.16 Y122.388 E64.67814
G1 X95.244 Y122.918 E64.71312
G1 X95.393 Y123.308 E64.74034
G1 X95.434 Y123.414 E64.74775
G1 X95.721 Y123.863 E64.78249
G1 X96.093 Y124.246 E64.81729
G1 X96.539 Y124.543 E64.85223
G1 X96.696 Y124.607 E64.86328
G1 X97.032 Y124.741 E64.88686
M204 S3000
M205 X10 Y10
G0 F500 X97.005 Y124.837
G0 X111.442 Y124.811
G0 X111.688 Y124.2
M204 S1800
M205 X8 Y8
;TYPE:WALL-OUTER
G1 F300 X112.099 Y124.275 E64.9141
G1 X112.509 Y124.265 E64.94083
G1 X112.923 Y124.165 E64.9686
G1 X113.301 Y123.987 E64.99583
G1 X113.635 Y123.735 E65.02311
G1 X113.908 Y123.421 E65.05023
G1 X114.113 Y123.057 E65.07747
G1 X114.239 Y122.657 E65.10481
G1 X114.28 Y122.25 E65.13147
G1 X114.237 Y121.834 E65.15874
G1 X114.111 Y121.437 E65.18589
G1 X113.904 Y121.073 E65.21319
G1 X113.629 Y120.76 E65.24035
G1 X113.294 Y120.51 E65.2676
G1 X112.916 Y120.332 E65.29483
G1 X112.51 Y120.236 E65.32203
G1 X111.883 Y120.252 E65.36292
G1 X111.483 Y120.37 E65.3901
G1 X111.115 Y120.566 E65.41729
G1 X110.794 Y120.836 E65.44463
G1 X110.535 Y121.164 E65.47187
G1 X110.349 Y121.537 E65.49905
G1 X110.244 Y121.941 E65.52626
G1 X110.222 Y122.358 E65.55348
G1 X110.288 Y122.772 E65.58081
G1 X110.437 Y123.161 E65.60796
G1 X110.662 Y123.514 E65.63525
G1 X110.953 Y123.813 E65.66245
G1 X111.301 Y124.045 E65.68972
G1 X111.688 Y124.2 E65.71689
M204 S3000
M205 X10 Y10
G0 F500 X111.885 Y124.235
G0 X111.532 Y124.741
M204 S1800
M205 X8 Y8
;TYPE:WALL-INNER
G1 F300 X112.055 Y124.836 E65.75155
G1 X112.582 Y124.823 E65.78591
G1 X113.11 Y124.696 E65.82131
G1 X113.302 Y124.606 E65.83514
G1 X113.592 Y124.469 E65.85605
G1 X114.019 Y124.147 E65.89091
G1 X114.368 Y123.745 E65.92561
G1 X114.603 Y123.328 E65.95682
G1 X114.63 Y123.281 E65.96035
G1 X114.79 Y122.77 E65.99526
G1 X114.843 Y122.249 E66.0294
G1 X114.788 Y121.719 E66.06413
G1 X114.627 Y121.211 E66.09887
G1 X114.603 Y121.169 E66.10203
G1 X114.362 Y120.746 E66.13376
G1 X114.011 Y120.346 E66.16845
G1 X113.584 Y120.027 E66.2032
G1 X113.102 Y119.8 E66.23793
G1 X112.568 Y119.674 E66.2737
G1 X111.795 Y119.694 E66.32411
G1 X111.27 Y119.849 E66.35979
G1 X110.8 Y120.099 E66.3945
G1 X110.39 Y120.444 E66.42943
G1 X110.06 Y120.862 E66.46415
G1 X109.822 Y121.339 E66.4989
G1 X109.688 Y121.855 E66.53365
G1 X109.66 Y122.388 E66.56845
G1 X109.744 Y122.918 E66.60343
G1 X109.934 Y123.414 E66.63805
G1 X110.221 Y123.863 E66.67279
G1 X110.593 Y124.246 E66.7076
G1 X111.039 Y124.543 E66.74253
G1 X111.196 Y124.607 E66.75358
G1 X111.532 Y124.741 E66.77716
M204 S3000
M205 X10 Y10
G0 F500 X111.505 Y124.837
G0 X115.09 Y125.09
G0 X115.16 Y125.16
M204 S1800
M205 X8 Y8
G1 F300 X113.322 Y125.16 E66.89698
G1 X113.11 Y125.16 E66.90966
G1 X112.582 Y125.16 E66.93426
G1 X112.055 Y125.16 E66.95457
G1 X111.532 Y125.16 E66.97718
G1 X111.17 Y125.16 E66.99788
G1 X98.822 Y125.16 E67.80285
G1 X98.61 Y125.16 E67.81552
G1 X98.082 Y125.16 E67.84012
G1 X97.555 Y125.16 E67.86043
